!!!!SEGMENT: pl-cz--iii-699--005_volckmer-augustin--litaniae-lauretanae-g-agnus-dei.krn
!!!cenid: 17xx:1136
!!!COM: Volckmer, Augustin
!!!COM-rismID: pe30020656
!!!CDT: 1755-~1820
!!!CNT:
!!!OPR: Litaniae Lauretanae G
!!!OTL: Agnus Dei
!!!OMV: 005
!!!PDT:
!!!AGN: Sacred; Mass
!!!SMS-siglum: PL-CZ
!!!SMS-shelfmark: III-699
!!!SMS-shelfwork: 001-005 M
!!!SMS-variant:
!!!SMS-altvar:
!!!NIFC-rismSourceID: 300001386
!!!NIFC-islandoraID: pl-cz:40634
!!!URL-pdf-islandora: https://repozytorium.nifc.pl/islandora/object/pl-cz%3A40634/datastream/PDF/view
!!!URL-scan:
!!!ONB-nifc: UWAGA: części Litanii: Kyrie eleison, Mater Christi, Salus infirmorum, Regina angelorum, Agnus Dei
!!!AIN: 1 alto 1 bass 2 cor 2 flt 1 organ 1 soprn 1 tenor 1 viola 2 violn
!!!key: G
**kern	**fba	**dynam	**kern	**dynam	**kern	**dynam	**kern	**dynam	**kern	**text	**kern	**text	**kern	**text	**kern	**text	**kern	**dynam	**kern	**dynam	**kern	**dynam	**kern	**dynam
*	*	*	*group4	*	*group4	*	*group4	*	*group3	*	*group3	*	*group3	*	*group3	*	*group2	*	*group2	*	*group1	*	*group1	*
*part12	*part12	*part12	*part11	*part11	*part10	*part10	*part9	*part9	*part8	*part8	*part7	*part7	*part6	*part6	*part5	*part5	*part4	*part4	*part3	*part3	*part2	*part2	*part1	*part1
*staff12	*	*	*staff11	*	*staff10	*	*staff9	*	*staff8	*staff8	*staff7	*staff7	*staff6	*staff6	*staff5	*staff5	*staff4	*	*staff3	*	*staff2	*	*staff1	*
*IGcont	*	*	*IGacmp	*	*IGacmp	*	*IGacmp	*	*IGcoro	*	*IGcoro	*	*IGcoro	*	*IGcoro	*	*IGacmp	*	*IGacmp	*	*IGacmp	*	*IGacmp	*
*ICklav	*	*	*ICstr	*	*ICstr	*	*ICstr	*	*ICvox	*	*ICvox	*	*ICvox	*	*ICvox	*	*ICbras	*	*ICbras	*	*ICww	*	*ICww	*
*Iorgan	*	*	*Iviola	*	*Ivioln	*	*Ivioln	*	*Ibass	*	*Itenor	*	*Ialto	*	*Isoprn	*	*Icor	*	*Icor	*	*Iflt	*	*Iflt	*
*I"Organo.	*	*	*I"Alto_ Viola_ Obligat	*	*I"Violino_ Secundo_	*	*I"Violino_ Primo_	*	*I"Baſso.	*	*I"Tenore.	*	*I"Alto	*	*I"Canto	*	*I"Cornu Secundo ex G	*	*I"Cornu. Primo. ex G	*	*I"Flauto. Secundo.	*	*I"Flauto. Primo.	*
*I'org	*	*	*I'a-vla	*	*I'vl 2	*	*I'vl 1	*	*I'B	*	*I'T	*	*I'A	*	*I'S	*	*I'cor 2 in G	*	*I'cor 1 in G	*	*I'fl 2	*	*I'fl 1	*
*clefF4	*	*	*clefC3	*	*clefG2	*	*clefG2	*	*clefF4	*	*clefC4	*	*clefC3	*	*clefC1	*	*clefG2	*	*clefG2	*	*clefG2	*	*clefG2	*
*	*	*	*	*	*	*	*	*	*	*	*	*	*	*	*	*	*ITrd3c5	*	*ITrd3c5	*	*	*	*	*
*k[f#]	*	*	*k[f#]	*	*k[f#]	*	*k[f#]	*	*k[f#]	*	*k[f#]	*	*k[f#]	*	*k[f#]	*	*k[f#]	*	*k[f#]	*	*k[f#]	*	*k[f#]	*
*G:	*	*	*G:	*	*G:	*	*G:	*	*G:	*	*G:	*	*G:	*	*G:	*	*G:	*	*G:	*	*G:	*	*G:	*
*M3/4	*	*	*M3/4	*	*M3/4	*	*M3/4	*	*M3/4	*	*M3/4	*	*M3/4	*	*M3/4	*	*M3/4	*	*M3/4	*	*M3/4	*	*M3/4	*
*2\right	*	*below	*2\right	*below	*2\right	*below	*2\right	*below	*2\right	*	*2\right	*	*2\right	*	*2\right	*	*2\right	*below	*2\right	*	*2\right	*below	*2\right	*below
=1	=1	=1	=1	=1	=1	=1	=1	=1	=1	=1	=1	=1	=1	=1	=1	=1	=1	=1	=1	=1	=1	=1	=1	=1
!LO:TX:a:t=andante Molto	!	!	!	!	!	!	!	!	!	!	!	!	!	!	!	!	!	!	!	!	!	!	!	!
!LO:TX:b:t=Solo:rj	!	!	!	!	!	!	!	!	!	!	!	!	!	!	!	!	!	!	!	!	!	!	!	!
*	*	*	*tremolo	*	*	*	*	*	*	*	*	*	*	*	*	*	*	*	*	*	*	*	*	*
!	!	!	!	!	!	!	!	!	!LO:TX:a:t=Solo:rj	!	!	!	!	!	!	!	!	!	!	!	!	!	!	!
!	!	!	!LO:TX:b:t=dolce	!	!LO:TX:b:t=dolce	!	!LO:TX:b:t=dolce	!	!LO:TX:a:t=9	!	!LO:TX:a:t=54	!	!LO:TX:a:t=54	!	!LO:TX:a:t=54	!	!	!	!LO:TX:b:t=dolce:rj	!	!LO:TX:b:t=dolce	!	!LO:TX:b:t=dolce	!
!	!	!	!LO:TX:a:t=Andante Molto	!	!LO:TX:a:t=Andante Molto:rj	!	!LO:TX:a:t=Andante Molto:rj	!	!LO:TX:a:t=Andante Molto	!	!LO:TX:a:t=Andante Molto	!	!LO:TX:a:t=Andante Molto	!	!LO:TX:a:t=Andante Molto	!	!LO:TX:a:t=andante Molto	!LO:DY:t=piano	!LO:TX:a:t=andante Molto	!	!LO:TX:a:t=andante Molto	!	!LO:TX:a:t=andante Molto	!
8G\L	5 3	.	8d\L	.	8b\L	.	4g/	.	0.r	.	0.r	.	0.r	.	0.r	.	4G/	p	4d/	.	2gg\	.	4gg\	.
8G\	.	.	8d\	.	8b\	.	.	.	.	.	.	.	.	.	.	.	.	.	.	.	.	.	.	.
8G\	.	.	8d\	.	8b\	.	4b\	.	.	.	.	.	.	.	.	.	4r	.	4r	.	.	.	4bb\	.
8G\	.	.	8d\	.	8b\	.	.	.	.	.	.	.	.	.	.	.	.	.	.	.	.	.	.	.
8G\	.	.	8d\	.	8b\	.	(8dd\L	.	.	.	.	.	.	.	.	.	4g\	.	4b\	.	4bb\	.	8ddd\L	.
8G\J	.	.	8d\J	.	8b\J	.	8ee\J)	.	.	.	.	.	.	.	.	.	.	.	.	.	.	.	8eee\J	.
=2	=2	=2	=2	=2	=2	=2	=2	=2	=2	=2	=2	=2	=2	=2	=2	=2	=2	=2	=2	=2	=2	=2	=2	=2
!	!	!	!	!	!	!	!	!	!	!	!	!	!	!	!	!	!	!	!	!	!	!	!	!
8A\L	.	.	8d\L	.	8b/L	.	8dd\L	.	.	.	.	.	.	.	.	.	2d/	.	2a\	.	4ff#\	.	8ddd\L	.
8A\	.	.	8d\	.	8f#/J	.	8a\J	.	.	.	.	.	.	.	.	.	.	.	.	.	.	.	8aa\J	.
!LO:TX:t=P:problem:basso - wykreślona 4	!	!	!	!	!	!	!	!	!	!	!	!	!	!	!	!	!	!	!	!	!	!	!	!
8F#\	.	.	8d\	.	4a/	.	4cc\	.	.	.	.	.	.	.	.	.	.	.	.	.	4aa\	.	4ccc\	.
8F#\	.	.	8d\	.	.	.	.	.	.	.	.	.	.	.	.	.	.	.	.	.	.	.	.	.
8G\	.	.	8d\	.	4g/	.	4b\	.	.	.	.	.	.	.	.	.	4g\	.	4b\	.	4gg\	.	4bb\	.
*	*	*	*	*	*	*	*	*	*	*	*	*	*	*	*	*	*	*	*	*	*	*	*	*
8G\J	.	.	8d\J	.	.	.	.	.	.	.	.	.	.	.	.	.	.	.	.	.	.	.	.	.
*	*	*	*Xtremolo	*	*	*	*	*	*	*	*	*	*	*	*	*	*	*	*	*	*	*	*	*
=3	=3	=3	=3	=3	=3	=3	=3	=3	=3	=3	=3	=3	=3	=3	=3	=3	=3	=3	=3	=3	=3	=3	=3	=3
8C/L	.	.	8e\L	.	8c/L	.	(16b\LL	.	.	.	.	.	.	.	.	.	4r	.	4r	.	4cc\	.	16bb\LL	.
.	.	.	.	.	.	.	16a\)	.	.	.	.	.	.	.	.	.	.	.	.	.	.	.	16aa\	.
8C/	.	.	8e\J	.	16e/L	.	(16cc\	.	.	.	.	.	.	.	.	.	.	.	.	.	.	.	16ccc\	.
.	.	.	.	.	16c/JJ	.	16a\JJ)	.	.	.	.	.	.	.	.	.	.	.	.	.	.	.	16aa\JJ	.
*	*	*	*tremolo	*	*	*	*	*	*	*	*	*	*	*	*	*	*	*	*	*	*	*	*	*
8D/	x 4	.	8d\L	.	4B/	.	4g/	.	.	.	.	.	.	.	.	.	4d\ 4g\	.	4b\	.	4b\	.	4gg\	.
8D/	.	.	8d\	.	.	.	.	.	.	.	.	.	.	.	.	.	.	.	.	.	.	.	.	.
8DD/	x 3	.	8d\	.	4A/	.	4f#/	.	.	.	.	.	.	.	.	.	4d\	.	4a\	.	4a\	.	4ff#\	.
*	*	*	*	*	*	*	*	*	*	*	*	*	*	*	*	*	*	*	*	*	*	*	*	*
8DD/J	.	.	8d\J	.	.	.	.	.	.	.	.	.	.	.	.	.	.	.	.	.	.	.	.	.
*	*	*	*Xtremolo	*	*	*	*	*	*	*	*	*	*	*	*	*	*	*	*	*	*	*	*	*
=4	=4	=4	=4	=4	=4	=4	=4	=4	=4	=4	=4	=4	=4	=4	=4	=4	=4	=4	=4	=4	=4	=4	=4	=4
4GG/	.	.	4d\	.	4B/	.	8g/L	.	.	.	.	.	.	.	.	.	4g\	.	4b\	.	4b\	.	8gg\L	.
.	.	.	.	.	.	.	8d/	.	.	.	.	.	.	.	.	.	.	.	.	.	.	.	8dd\	.
4r	.	.	4r	.	4r	.	8b/	.	.	.	.	.	.	.	.	.	4r	.	4r	.	4r	.	8bb\	.
.	.	.	.	.	.	.	8g/	.	.	.	.	.	.	.	.	.	.	.	.	.	.	.	8gg\	.
4G\	.	.	4d\	.	8B/L	.	8d/	.	.	.	.	.	.	.	.	.	4g\	.	4g\	.	4r	.	8dd\	.
.	.	.	.	.	8G/J	.	8B/J	.	.	.	.	.	.	.	.	.	.	.	.	.	.	.	8b\J	.
=5	=5	=5	=5	=5	=5	=5	=5	=5	=5	=5	=5	=5	=5	=5	=5	=5	=5	=5	=5	=5	=5	=5	=5	=5
4D/	.	.	4d\	.	8.A/L	.	8.cT/L	.	0.r	.	0.r	.	0.r	.	0.r	.	4d/	.	4a\	.	4a/	.	8.ccT\L	.
.	.	.	.	.	32G/LL	.	32B/LL	.	.	.	.	.	.	.	.	.	.	.	.	.	.	.	32b\LL	.
.	.	.	.	.	32A/JJJ	.	32c/JJJ	.	.	.	.	.	.	.	.	.	.	.	.	.	.	.	32cc\JJJ	.
4GG/	.	.	4d\	.	4G/	.	4B/	.	.	.	.	.	.	.	.	.	4G/	.	4d/	.	4g/	.	4b\	.
4r	.	.	4r	.	4r	.	4r	.	.	.	.	.	.	.	.	.	4r	.	4r	.	4r	.	4r	.
=6	=6	=6	=6	=6	=6	=6	=6	=6	=6	=6	=6	=6	=6	=6	=6	=6	=6	=6	=6	=6	=6	=6	=6	=6
*tremolo	*	*	*tremolo	*	*tremolo	*	*	*	*	*	*	*	*	*	*	*	*	*	*	*	*	*	*	*
!	!	!	!	!	!	!	!	!	!	!	!	!	!	!	!	!	!LO:TX:a:t=2	!	!LO:TX:a:t=2	!	!	!	!	!
8C/L	x 3	.	8c\L	.	8g/L	.	4ee\	.	.	.	.	.	.	.	.	.	1.r	.	1.r	.	2.cc\	.	2.ee\	.
8C/	.	.	8c\	.	8g/	.	.	.	.	.	.	.	.	.	.	.	.	.	.	.	.	.	.	.
8C/	.	.	8c\	.	8g/	.	(16ee\LL	.	.	.	.	.	.	.	.	.	.	.	.	.	.	.	.	.
.	.	.	.	.	.	.	16gg\	.	.	.	.	.	.	.	.	.	.	.	.	.	.	.	.	.
8C/	.	.	8c\	.	8g/	.	16ff#\	.	.	.	.	.	.	.	.	.	.	.	.	.	.	.	.	.
.	.	.	.	.	.	.	16gg\JJ)	.	.	.	.	.	.	.	.	.	.	.	.	.	.	.	.	.
8C/	.	.	8c\	.	8g/	.	(16aa\LL	.	.	.	.	.	.	.	.	.	.	.	.	.	.	.	.	.
.	.	.	.	.	.	.	16gg\	.	.	.	.	.	.	.	.	.	.	.	.	.	.	.	.	.
8C/J	.	.	8c\J	.	8g/J	.	16ff#\	.	.	.	.	.	.	.	.	.	.	.	.	.	.	.	.	.
.	.	.	.	.	.	.	16gg\JJ)	.	.	.	.	.	.	.	.	.	.	.	.	.	.	.	.	.
=7	=7	=7	=7	=7	=7	=7	=7	=7	=7	=7	=7	=7	=7	=7	=7	=7	=7	=7	=7	=7	=7	=7	=7	=7
!	!	!	!	!	!LO:LB:g=original	!	!LO:LB:g=original	!	!	!	!	!	!	!	!	!	!	!	!	!	!	!	!	!
8BB/L	6 3	.	8B/L	.	8g/L	.	4dd\	.	.	.	.	.	.	.	.	.	.	.	.	.	2.b\	.	2.dd\	.
8BB/	.	.	8B/	.	8g/	.	.	.	.	.	.	.	.	.	.	.	.	.	.	.	.	.	.	.
8BB/	.	.	8B/	.	8g/	.	(16dd\LL	.	.	.	.	.	.	.	.	.	.	.	.	.	.	.	.	.
.	.	.	.	.	.	.	16gg\)	.	.	.	.	.	.	.	.	.	.	.	.	.	.	.	.	.
8BB/	.	.	8B/	.	8g/	.	16ff#\	.	.	.	.	.	.	.	.	.	.	.	.	.	.	.	.	.
.	.	.	.	.	.	.	16gg\JJ	.	.	.	.	.	.	.	.	.	.	.	.	.	.	.	.	.
8BB/	.	.	8B/	.	8g/	.	16aa\LL	.	.	.	.	.	.	.	.	.	.	.	.	.	.	.	.	.
.	.	.	.	.	.	.	(16gg\	.	.	.	.	.	.	.	.	.	.	.	.	.	.	.	.	.
*	*	*	*	*	*	*	*	*	*	*	*	*	*	*	*	*	*	*	*	*	*	*	*	*
8BB/J	.	.	8B/J	.	8g/J	.	16ff#\	.	.	.	.	.	.	.	.	.	.	.	.	.	.	.	.	.
.	.	.	.	.	.	.	16gg\JJ)	.	.	.	.	.	.	.	.	.	.	.	.	.	.	.	.	.
*Xtremolo	*	*	*	*	*Xtremolo	*	*	*	*	*	*	*	*	*	*	*	*	*	*	*	*	*	*	*
=8	=8	=8	=8	=8	=8	=8	=8	=8	=8	=8	=8	=8	=8	=8	=8	=8	=8	=8	=8	=8	=8	=8	=8	=8
8D\L	7 5	.	8d\L	.	8f#\L	.	8dd\L	.	.	.	.	.	.	.	.	.	4r	.	4r	.	4a/	.	4dd\	.
8D\	.	.	8d\	.	8f#\	.	8cc\J	.	.	.	.	.	.	.	.	.	.	.	.	.	.	.	.	.
8F#\	x _	.	8d\	.	8a\	.	4cc\	.	.	.	.	.	.	.	.	.	4d\	.	4a\	.	4ff#\	.	4ccc\	.
.	x x	.	.	.	.	.	.	.	.	.	.	.	.	.	.	.	.	.	.	.	.	.	.	.
8F#\	x _	.	8d\	.	8a\	.	.	.	.	.	.	.	.	.	.	.	.	.	.	.	.	.	.	.
.	x x	.	.	.	.	.	.	.	.	.	.	.	.	.	.	.	.	.	.	.	.	.	.	.
8G\	x 3	.	8d\	.	8g\	.	4b\	.	.	.	.	.	.	.	.	.	4g\	.	4b\	.	4gg\	.	4bb\	.
*	*	*	*	*	*	*	*	*	*	*	*	*	*	*	*	*	*	*	*	*	*	*	*	*
8G\J	.	.	8d\J	.	8g\J	.	.	.	.	.	.	.	.	.	.	.	.	.	.	.	.	.	.	.
*	*	*	*Xtremolo	*	*	*	*	*	*	*	*	*	*	*	*	*	*	*	*	*	*	*	*	*
=9	=9	=9	=9	=9	=9	=9	=9	=9	=9	=9	=9	=9	=9	=9	=9	=9	=9	=9	=9	=9	=9	=9	=9	=9
!	!	!	!	!	!	!	!	!	!	!	!	!	!	!	!	!	!	!	!	!	!	!	!LO:LB:g=original	!
4D/	x 4	.	4d\	.	8.gT/L	.	8.bt\L	.	2.r	.	0.r	.	0.r	.	0.r	.	4g\	.	4b\	.	4gg\	.	8.bbt\L	.
.	.	.	.	.	32f#/LL	.	32a\LL	.	.	.	.	.	.	.	.	.	.	.	.	.	.	.	32aa\LL	.
.	.	.	.	.	32g/JJJ	.	32b\JJJ	.	.	.	.	.	.	.	.	.	.	.	.	.	.	.	32bb\JJJ	.
4DD/	x 3	.	4d\	.	4f#/	.	4a/	.	.	.	.	.	.	.	.	.	4d\	.	4a\	.	4ff#\	.	4aa\	.
4r	.	.	4r	.	4r	.	4r	.	.	.	.	.	.	.	.	.	4r	.	4r	.	4r	.	4r	.
=10	=10	=10	=10	=10	=10	=10	=10	=10	=10	=10	=10	=10	=10	=10	=10	=10	=10	=10	=10	=10	=10	=10	=10	=10
*tremolo	*	*	*tremolo	*	*	*	*	*	*	*	*	*	*	*	*	*	*	*	*	*	*	*	*	*
!	!	!	!	!	!	!	!	!	!	!	!	!	!	!	!	!	!	!	!	!	!LO:LB:g=original	!	!	!
!LO:LB:g=original	!	!	!LO:LB:g=original	!	!	!LO:DY:t=piano	!	!LO:DY:t=piano	!	!	!	!	!	!	!	!	!LO:TX:a:t=23	!	!LO:TX:a:t=23	!	!LO:TX:a:t=5	!	!LO:TX:a:t=5	!
8G\L	.	.	8d\L	.	4G/	p	4g/	p	(4G\	Ag-	.	.	.	.	.	.	0.r	.	0.r	.	0.r	.	0.r	.
8G\	.	.	8d\	.	.	.	.	.	.	.	.	.	.	.	.	.	.	.	.	.	.	.	.	.
8G\	.	.	8d\	.	4B/	.	4b/	.	4B\)	.	.	.	.	.	.	.	.	.	.	.	.	.	.	.
*	*	*	*	*	*	*	*	*	*	*	*	*	*	*	*	*	*	*	*	*	*	*	*	*
8G\J	.	.	8d\	.	.	.	.	.	.	.	.	.	.	.	.	.	.	.	.	.	.	.	.	.
*Xtremolo	*	*	*	*	*	*	*	*	*	*	*	*	*	*	*	*	*	*	*	*	*	*	*	*
8B\L	.	.	8d\	.	8d/L	.	(8.dd\L	.	8d\L	-nus	.	.	.	.	.	.	.	.	.	.	.	.	.	.
8B\J	.	.	8d\J	.	8e/J	.	.	.	8e\J	.	.	.	.	.	.	.	.	.	.	.	.	.	.	.
.	.	.	.	.	.	.	16ee\Jk)	.	.	.	.	.	.	.	.	.	.	.	.	.	.	.	.	.
=11	=11	=11	=11	=11	=11	=11	=11	=11	=11	=11	=11	=11	=11	=11	=11	=11	=11	=11	=11	=11	=11	=11	=11	=11
8A\L	.	.	8d\L	.	8d/L	.	8dd\L	.	8d\L	De-	.	.	.	.	.	.	.	.	.	.	.	.	.	.
8A\	.	.	8d\	.	8A/J	.	8a\J	.	(8A\J	.	.	.	.	.	.	.	.	.	.	.	.	.	.	.
8F#\	.	.	8d\	.	4c/	.	4cc\	.	4c\)	.	.	.	.	.	.	.	.	.	.	.	.	.	.	.
8F#\	.	.	8d\	.	.	.	.	.	.	.	.	.	.	.	.	.	.	.	.	.	.	.	.	.
8G\	.	.	8d\	.	4B/	.	4b\	.	4B\	-i	.	.	.	.	.	.	.	.	.	.	.	.	.	.
*	*	*	*	*	*	*	*	*	*	*	*	*	*	*	*	*	*	*	*	*	*	*	*	*
8G\J	.	.	8d\J	.	.	.	.	.	.	.	.	.	.	.	.	.	.	.	.	.	.	.	.	.
*	*	*	*Xtremolo	*	*	*	*	*	*	*	*	*	*	*	*	*	*	*	*	*	*	*	*	*
=12	=12	=12	=12	=12	=12	=12	=12	=12	=12	=12	=12	=12	=12	=12	=12	=12	=12	=12	=12	=12	=12	=12	=12	=12
8C/L	.	.	8e\L	.	8c/L	.	(16b\LL	.	16B\LL	qui	.	.	.	.	.	.	.	.	.	.	.	.	.	.
.	.	.	.	.	.	.	16a\)	.	16G\	.	.	.	.	.	.	.	.	.	.	.	.	.	.	.
8C/	.	.	8e\J	.	16e/L	.	(16cc\	.	16c\	.	.	.	.	.	.	.	.	.	.	.	.	.	.	.
.	.	.	.	.	16c/JJ	.	16a\JJ)	.	16A\JJ	.	.	.	.	.	.	.	.	.	.	.	.	.	.	.
*	*	*	*tremolo	*	*	*	*	*	*	*	*	*	*	*	*	*	*	*	*	*	*	*	*	*
8D/	x 4	.	8d\L	.	4B/	.	4g/	.	4G\	tol-	.	.	.	.	.	.	.	.	.	.	.	.	.	.
8D/	.	.	8d\	.	.	.	.	.	.	.	.	.	.	.	.	.	.	.	.	.	.	.	.	.
8DD/	x 3	.	8d\	.	4A/	.	4f#/	.	4F#\	-lis	.	.	.	.	.	.	.	.	.	.	.	.	.	.
*	*	*	*	*	*	*	*	*	*	*	*	*	*	*	*	*	*	*	*	*	*	*	*	*
8DD/J	.	.	8d\J	.	.	.	.	.	.	.	.	.	.	.	.	.	.	.	.	.	.	.	.	.
*	*	*	*Xtremolo	*	*	*	*	*	*	*	*	*	*	*	*	*	*	*	*	*	*	*	*	*
=13	=13	=13	=13	=13	=13	=13	=13	=13	=13	=13	=13	=13	=13	=13	=13	=13	=13	=13	=13	=13	=13	=13	=13	=13
4GG/	.	.	4d\	.	4B/	.	8g/L	.	8G\L	pec-	0.r	.	0.r	.	0.r	.	.	.	.	.	.	.	.	.
.	.	.	.	.	.	.	8d/	.	8D\J	.	.	.	.	.	.	.	.	.	.	.	.	.	.	.
4r	.	.	4r	.	4r	.	8b/	.	8B\L	-ca-	.	.	.	.	.	.	.	.	.	.	.	.	.	.
.	.	.	.	.	.	.	8g/	.	8G\J	.	.	.	.	.	.	.	.	.	.	.	.	.	.	.
4G\	.	.	4d\	.	4B/	.	8d/	.	8D\L	-ta	.	.	.	.	.	.	.	.	.	.	.	.	.	.
.	.	.	.	.	.	.	8B/J	.	8BB\J	.	.	.	.	.	.	.	.	.	.	.	.	.	.	.
=14	=14	=14	=14	=14	=14	=14	=14	=14	=14	=14	=14	=14	=14	=14	=14	=14	=14	=14	=14	=14	=14	=14	=14	=14
4D\	.	.	4d\	.	8.A/L	.	8.cT/L	.	8C/L	mun-	.	.	.	.	.	.	0.r	.	0.r	.	2.r	.	2.r	.
.	.	.	.	.	.	.	.	.	16BB/L	.	.	.	.	.	.	.	.	.	.	.	.	.	.	.
.	.	.	.	.	32G/LL	.	32B/LL	.	16C/JJ	.	.	.	.	.	.	.	.	.	.	.	.	.	.	.
.	.	.	.	.	32A/JJJ	.	32c/JJJ	.	.	.	.	.	.	.	.	.	.	.	.	.	.	.	.	.
!	!	!	!	!	!	!	!	!	!LO:TX:a:t=h	!	!	!	!	!	!	!	!	!	!	!	!	!	!	!
4GG/	.	.	4d\	.	4G/	.	4B/	.	4BB/	-di	.	.	.	.	.	.	.	.	.	.	.	.	.	.
4r	.	.	4r	.	4r	.	4r	.	4r	.	.	.	.	.	.	.	.	.	.	.	.	.	.	.
=15	=15	=15	=15	=15	=15	=15	=15	=15	=15	=15	=15	=15	=15	=15	=15	=15	=15	=15	=15	=15	=15	=15	=15	=15
*tremolo	*	*	*tremolo	*	*tremolo	*	*	*	*	*	*	*	*	*	*	*	*	*	*	*	*	*	*	*
!	!	!	!	!	!	!	!LO:LB:g=original	!	!LO:TX:a:t=e	!	!	!	!	!	!	!	!	!	!	!	!	!	!	!
8C/L	.	.	8c\L	.	8g/L	.	4ee\	.	4E\	par-	.	.	.	.	.	.	.	.	.	.	2.cc\	.	2.ee\	.
8C/	.	.	8c\	.	8g/	.	.	.	.	.	.	.	.	.	.	.	.	.	.	.	.	.	.	.
8C/	.	.	8c\	.	8g/	.	16ee\LL	.	16E\LL	.	.	.	.	.	.	.	.	.	.	.	.	.	.	.
.	.	.	.	.	.	.	(16gg\	.	16G\	.	.	.	.	.	.	.	.	.	.	.	.	.	.	.
8C/	.	.	8c\	.	8g/	.	16ff#\	.	(16F#\	.	.	.	.	.	.	.	.	.	.	.	.	.	.	.
.	.	.	.	.	.	.	16gg\JJ)	.	16G\JJ	.	.	.	.	.	.	.	.	.	.	.	.	.	.	.
8C/	.	.	8c\	.	8g/	.	16aa\LL	.	16A\LL)	.	.	.	.	.	.	.	.	.	.	.	.	.	.	.
.	.	.	.	.	.	.	(16gg\	.	16G\	.	.	.	.	.	.	.	.	.	.	.	.	.	.	.
8C/J	.	.	8c\J	.	8g/J	.	16ff#\	.	16F#\	.	.	.	.	.	.	.	.	.	.	.	.	.	.	.
.	.	.	.	.	.	.	16gg\JJ)	.	16G\JJ	.	.	.	.	.	.	.	.	.	.	.	.	.	.	.
=16	=16	=16	=16	=16	=16	=16	=16	=16	=16	=16	=16	=16	=16	=16	=16	=16	=16	=16	=16	=16	=16	=16	=16	=16
!	!	!	!	!	!	!	!	!	!LO:LB:g=original	!	!	!	!	!	!	!	!	!	!	!	!	!	!	!
8BB/L	.	.	8B/L	.	8g/L	.	4dd\	.	4D\	.	.	.	.	.	.	.	.	.	.	.	2.b\	.	2.dd\	.
8BB/	.	.	8B/	.	8g/	.	.	.	.	.	.	.	.	.	.	.	.	.	.	.	.	.	.	.
8BB/	.	.	8B/	.	8g/	.	16dd\LL	.	16D\LL	.	.	.	.	.	.	.	.	.	.	.	.	.	.	.
.	.	.	.	.	.	.	(16gg\	.	16G\	.	.	.	.	.	.	.	.	.	.	.	.	.	.	.
8BB/	.	.	8B/	.	8g/	.	16ff#\	.	16F#\	.	.	.	.	.	.	.	.	.	.	.	.	.	.	.
.	.	.	.	.	.	.	16gg\JJ)	.	16G\JJ	.	.	.	.	.	.	.	.	.	.	.	.	.	.	.
8BB/	.	.	8B/	.	8g/	.	(16aa\LL	.	16A\LL	.	.	.	.	.	.	.	.	.	.	.	.	.	.	.
.	.	.	.	.	.	.	16gg\	.	16G\	.	.	.	.	.	.	.	.	.	.	.	.	.	.	.
*	*	*	*	*	*	*	*	*	*	*	*	*	*	*	*	*	*	*	*	*	*	*	*	*
8BB/J	.	.	8B/J	.	8g/J	.	16ff#\	.	16F#\	-ce	.	.	.	.	.	.	.	.	.	.	.	.	.	.
.	.	.	.	.	.	.	16gg\JJ)	.	16G\JJ	.	.	.	.	.	.	.	.	.	.	.	.	.	.	.
*Xtremolo	*	*	*Xtremolo	*	*Xtremolo	*	*	*	*	*	*	*	*	*	*	*	*	*	*	*	*	*	*	*
=17	=17	=17	=17	=17	=17	=17	=17	=17	=17	=17	=17	=17	=17	=17	=17	=17	=17	=17	=17	=17	=17	=17	=17	=17
!	!	!	!	!	!LO:LB:g=original	!	!	!	!	!	!	!	!	!	!	!	!	!	!	!	!	!	!	!
8D\L	7 5	.	4d\	.	4f#/	.	8dd\L	.	(4D\	no-	0.r	.	0.r	.	0.r	.	.	.	.	.	4r	.	4r	.
8D\	.	.	.	.	.	.	8cc\J	.	.	.	.	.	.	.	.	.	.	.	.	.	.	.	.	.
!	!	!	!	!	!	!	!	!	!	!	!	!	!	!	!	!	!	!	!	!	!LO:SIC:v:s=4aa\	!	!	!
8F#\	_ _	.	4d\	.	4a/	.	4cc\	.	4c\)	.	.	.	.	.	.	.	.	.	.	.	4gg\	.	4ccc\	.
8F#\	.	.	.	.	.	.	.	.	.	.	.	.	.	.	.	.	.	.	.	.	.	.	.	.
!	!	!	!	!	!	!	!	!	!	!	!	!	!	!	!	!	!	!	!	!	!LO:SIC:v:s=4gg\	!	!	!
8G\	x 3	.	4d\	.	4g/	.	4b\	.	4B\	-bis	.	.	.	.	.	.	.	.	.	.	4ff#\	.	4bb\	.
8G\J	.	.	.	.	.	.	.	.	.	.	.	.	.	.	.	.	.	.	.	.	.	.	.	.
=18	=18	=18	=18	=18	=18	=18	=18	=18	=18	=18	=18	=18	=18	=18	=18	=18	=18	=18	=18	=18	=18	=18	=18	=18
!	!	!	!	!	!	!	!	!	!	!	!	!	!	!	!	!	!	!	!	!	!LO:SIC:v:s=4gg\	!	!	!
4D/	.	.	4d\	.	8.g/L	.	8.bt\L	.	8.Bt\L	Do-	.	.	.	.	.	.	0.r	.	0.r	.	4ff#\	.	4bb\	.
.	.	.	.	.	32f#/LL	.	32a\LL	.	32A\LL	-mi-	.	.	.	.	.	.	.	.	.	.	.	.	.	.
.	.	.	.	.	32g/JJJ	.	32b\JJJ	.	32B\JJJ	.	.	.	.	.	.	.	.	.	.	.	.	.	.	.
!	!	!	!	!	!	!	!	!	!	!	!	!	!	!	!	!	!	!	!	!	!LO:SIC:v:s=4ff\	!	!	!
4AA/	.	.	4d\	.	4f#/	.	4a/	.	4A\	-ne	.	.	.	.	.	.	.	.	.	.	4ee\	.	4aa\	.
4DD/	.	.	4r	.	4r	.	4r	.	4r	.	.	.	.	.	.	.	.	.	.	.	4r	.	4r	.
=19	=19	=19	=19	=19	=19	=19	=19	=19	=19	=19	=19	=19	=19	=19	=19	=19	=19	=19	=19	=19	=19	=19	=19	=19
*tremolo	*	*	*tremolo	*	*tremolo	*	*	*	*	*	*	*	*	*	*	*	*	*	*	*	*	*	*	*
!	!	!	!	!	!	!	!	!	!	!	!	!	!	!	!	!	!	!	!	!	!LO:TX:a:t=14	!	!LO:TX:a:t=14	!
8D\L	.	.	8a\L	.	8f#/L	.	[4a/	.	[4A\	Ag-	.	.	.	.	.	.	.	.	.	.	0.r	.	0.r	.
8D\	.	.	8a\	.	8f#/	.	.	.	.	.	.	.	.	.	.	.	.	.	.	.	.	.	.	.
8D\	.	.	8a\	.	8f#/	.	8a/L]	.	8A\L]	.	.	.	.	.	.	.	.	.	.	.	.	.	.	.
8D\	.	.	8a\	.	8f#/	.	8f#/J	.	8F#\J	.	.	.	.	.	.	.	.	.	.	.	.	.	.	.
8D\	.	.	8a\	.	8f#/	.	8dd\L	.	8d\L	-nus	.	.	.	.	.	.	.	.	.	.	.	.	.	.
8D\J	.	.	8a\J	.	8f#/J	.	8a\J	.	8A\J	.	.	.	.	.	.	.	.	.	.	.	.	.	.	.
=20	=20	=20	=20	=20	=20	=20	=20	=20	=20	=20	=20	=20	=20	=20	=20	=20	=20	=20	=20	=20	=20	=20	=20	=20
8E\L	.	.	8a\L	.	8g/L	.	16a/LL	.	16A\LL	De-	.	.	.	.	.	.	.	.	.	.	.	.	.	.
.	.	.	.	.	.	.	(16g/	.	16G\	.	.	.	.	.	.	.	.	.	.	.	.	.	.	.
8E\	.	.	8a\	.	8g/	.	16f#/	.	(16F#\	.	.	.	.	.	.	.	.	.	.	.	.	.	.	.
.	.	.	.	.	.	.	16g/JJ)	.	16G\JJ)	.	.	.	.	.	.	.	.	.	.	.	.	.	.	.
8E\	.	.	8a\	.	8g/	.	4g/	.	4G\	-i	.	.	.	.	.	.	.	.	.	.	.	.	.	.
8E\	.	.	8a\	.	8g/	.	.	.	.	.	.	.	.	.	.	.	.	.	.	.	.	.	.	.
8E\	.	.	8a\	.	8g/	.	4r	.	4r	.	.	.	.	.	.	.	.	.	.	.	.	.	.	.
8E\J	.	.	8a\J	.	8g/J	.	.	.	.	.	.	.	.	.	.	.	.	.	.	.	.	.	.	.
=21	=21	=21	=21	=21	=21	=21	=21	=21	=21	=21	=21	=21	=21	=21	=21	=21	=21	=21	=21	=21	=21	=21	=21	=21
8C#X/L	.	.	8a\L	.	8e/L	.	4.g/	.	4.G\	Ag-	0.r	.	0.r	.	0.r	.	.	.	.	.	.	.	.	.
8C#/	.	.	8a\	.	8e/	.	.	.	.	.	.	.	.	.	.	.	.	.	.	.	.	.	.	.
8C#/	.	.	8a\	.	8e/	.	.	.	.	.	.	.	.	.	.	.	.	.	.	.	.	.	.	.
8C#/	.	.	8a\	.	8e/	.	16f#/LL	.	16F#\LL	.	.	.	.	.	.	.	.	.	.	.	.	.	.	.
.	.	.	.	.	.	.	16g/JJ	.	16G\JJ	.	.	.	.	.	.	.	.	.	.	.	.	.	.	.
8C#/	.	.	8a\	.	8e/	.	8a/L	.	8A\L	-nus	.	.	.	.	.	.	.	.	.	.	.	.	.	.
*	*	*	*	*	*	*	*	*	*	*	*	*	*	*	*	*	*	*	*	*	*	*	*	*
8C#/J	.	.	8a\J	.	8e/J	.	8g/J	.	8G\J	.	.	.	.	.	.	.	.	.	.	.	.	.	.	.
*	*	*	*	*	*Xtremolo	*	*	*	*	*	*	*	*	*	*	*	*	*	*	*	*	*	*	*
=22	=22	=22	=22	=22	=22	=22	=22	=22	=22	=22	=22	=22	=22	=22	=22	=22	=22	=22	=22	=22	=22	=22	=22	=22
!LO:LB:g=original	!	!	!LO:LB:g=original	!	!	!	!LO:LB:g=original	!	!LO:LB:g=original	!	!	!	!	!	!	!	!	!	!	!	!	!	!	!
8D\L	.	.	8a\L	.	8e/L	.	8g/L	.	8G\L	De-	.	.	.	.	.	.	0.r	.	0.r	.	.	.	.	.
8D\	.	.	8a\	.	8d/J	.	8f#/J	.	8F#\J	.	.	.	.	.	.	.	.	.	.	.	.	.	.	.
8D\	.	.	8a\	.	4d/	.	4f#/	.	4F#\	-i	.	.	.	.	.	.	.	.	.	.	.	.	.	.
*	*	*	*	*	*	*	*	*	*	*	*	*	*	*	*	*	*	*	*	*	*	*	*	*
8D\J	.	.	8a\J	.	.	.	.	.	.	.	.	.	.	.	.	.	.	.	.	.	.	.	.	.
*Xtremolo	*	*	*Xtremolo	*	*	*	*	*	*	*	*	*	*	*	*	*	*	*	*	*	*	*	*	*
8E\L	.	.	4a\	.	4e/	.	4g/	.	4G\	qui	.	.	.	.	.	.	.	.	.	.	.	.	.	.
8E\J	.	.	.	.	.	.	.	.	.	.	.	.	.	.	.	.	.	.	.	.	.	.	.	.
=23	=23	=23	=23	=23	=23	=23	=23	=23	=23	=23	=23	=23	=23	=23	=23	=23	=23	=23	=23	=23	=23	=23	=23	=23
!	!	!	!	!	!	!	!LO:N:vis=8	!	!	!	!	!	!	!	!	!	!	!	!	!	!	!	!	!
4F#\	x 6	.	4a\	.	4f#/	.	8.a/L	.	8A\L	tol-	.	.	.	.	.	.	.	.	.	.	0.r	.	0.r	.
.	.	.	.	.	.	.	.	.	16B\L	.	.	.	.	.	.	.	.	.	.	.	.	.	.	.
.	.	.	.	.	.	.	32b/LL	.	(16c#X\JJ	.	.	.	.	.	.	.	.	.	.	.	.	.	.	.
.	.	.	.	.	.	.	32cc#X/JJJ	.	.	.	.	.	.	.	.	.	.	.	.	.	.	.	.	.
4r	.	.	4r	.	8d/L	.	(8dd\L	.	8d\L)	.	.	.	.	.	.	.	.	.	.	.	.	.	.	.
.	.	.	.	.	(8c#X/	.	8cc#X\	.	8c#\J	.	.	.	.	.	.	.	.	.	.	.	.	.	.	.
4F#\	.	.	4f#\	.	8B/	.	8b\)	.	8B\L	-lis	.	.	.	.	.	.	.	.	.	.	.	.	.	.
.	.	.	.	.	8A#X/J)	.	8a#X\J	.	8A#X\J	.	.	.	.	.	.	.	.	.	.	.	.	.	.	.
=24	=24	=24	=24	=24	=24	=24	=24	=24	=24	=24	=24	=24	=24	=24	=24	=24	=24	=24	=24	=24	=24	=24	=24	=24
4G\	.	.	4d\	.	16B/LL	.	16b\LL	.	16B\LL	pec-	.	.	.	.	.	.	.	.	.	.	.	.	.	.
.	.	.	.	.	16A#X/	.	16a#X\	.	16A#X\	.	.	.	.	.	.	.	.	.	.	.	.	.	.	.
.	.	.	.	.	16B/	.	16b\	.	16B\	.	.	.	.	.	.	.	.	.	.	.	.	.	.	.
.	.	.	.	.	16c#X/JJ	.	16cc#X\JJ	.	16c#X\JJ	.	.	.	.	.	.	.	.	.	.	.	.	.	.	.
4r	.	.	4r	.	8d/L 8f#	.	8dd'\L	.	8d\L	-ca-	.	.	.	.	.	.	.	.	.	.	.	.	.	.
.	.	.	.	.	8B/	.	8b'\	.	8B\J	.	.	.	.	.	.	.	.	.	.	.	.	.	.	.
8G\L	.	.	4d\	.	8e/	.	8g'\	.	8G\L	-ta	.	.	.	.	.	.	.	.	.	.	.	.	.	.
8G#X\J	.	.	.	.	8d/J	.	8f#'\J	.	8F#\J	.	.	.	.	.	.	.	.	.	.	.	.	.	.	.
=25	=25	=25	=25	=25	=25	=25	=25	=25	=25	=25	=25	=25	=25	=25	=25	=25	=25	=25	=25	=25	=25	=25	=25	=25
4A\	.	.	4a\	.	4d/	.	4f#/	.	4F#\	mun-	0.r	.	0.r	.	0.r	.	.	.	.	.	.	.	.	.
.	.	.	.	.	.	.	16qqe/LL	.	16qqE/LL	.	.	.	.	.	.	.	.	.	.	.	.	.	.	.
.	.	.	.	.	.	.	16qqf#/JJ	.	16qqF#/JJ	.	.	.	.	.	.	.	.	.	.	.	.	.	.	.
4E\	.	.	4a\	.	4c#X/	.	4e/	.	4E\	-di	.	.	.	.	.	.	.	.	.	.	.	.	.	.
4AA/	.	.	4r	.	4r	.	4r	.	4r	.	.	.	.	.	.	.	.	.	.	.	.	.	.	.
=26	=26	=26	=26	=26	=26!|:	=26	=26	=26	=26	=26	=26	=26	=26	=26	=26	=26	=26	=26	=26	=26	=26	=26	=26	=26
!	!	!	!	!	!LO:LB:g=original	!	!	!	!	!	!	!	!	!	!	!	!	!	!	!	!	!	!	!
4AA/	.	.	2c#X\	.	(8g/L	.	4.ee\	.	4.E\	par-	.	.	.	.	.	.	0.r	.	0.r	.	.	.	.	.
.	.	.	.	.	8A/)	.	.	.	.	.	.	.	.	.	.	.	.	.	.	.	.	.	.	.
4r	.	.	.	.	(8g/	.	.	.	.	.	.	.	.	.	.	.	.	.	.	.	.	.	.	.
.	.	.	.	.	8A/)	.	(16ff#\LL	.	(16F#\LL	.	.	.	.	.	.	.	.	.	.	.	.	.	.	.
.	.	.	.	.	.	.	16ee\JJ	.	16E\JJ	.	.	.	.	.	.	.	.	.	.	.	.	.	.	.
4Gn\	.	.	4e\	.	(8g/	.	16dd\LL	.	16D/LL)	.	.	.	.	.	.	.	.	.	.	.	.	.	.	.
.	.	.	.	.	.	.	16cc#X\	.	16C#X/JJ	.	.	.	.	.	.	.	.	.	.	.	.	.	.	.
.	.	.	.	.	8A/J)	.	16b\	.	16BB/LL	-ce	.	.	.	.	.	.	.	.	.	.	.	.	.	.
.	.	.	.	.	.	.	16a\JJ)	.	16AA/JJ	.	.	.	.	.	.	.	.	.	.	.	.	.	.	.
=27	=27	=27	=27	=27	=27	=27	=27	=27	=27	=27	=27	=27	=27	=27	=27	=27	=27	=27	=27	=27	=27	=27	=27	=27
4F#\	.	.	4d\	.	(8f#/L	.	4dd\	.	(4D\	no-	.	.	.	.	.	.	.	.	.	.	0.r	.	0.r	.
.	.	.	.	.	8A/)	.	.	.	.	.	.	.	.	.	.	.	.	.	.	.	.	.	.	.
4E\	.	.	4a\	.	(8c/	.	4ee\	.	4E\)	.	.	.	.	.	.	.	.	.	.	.	.	.	.	.
.	.	.	.	.	8A/)	.	.	.	.	.	.	.	.	.	.	.	.	.	.	.	.	.	.	.
4D\	.	.	4a\	.	(8d/	.	4ff#\	.	4F#\	-bis	.	.	.	.	.	.	.	.	.	.	.	.	.	.
.	.	.	.	.	8A/J)	.	.	.	.	.	.	.	.	.	.	.	.	.	.	.	.	.	.	.
=28	=28	=28	=28	=28	=28	=28	=28	=28	=28	=28	=28	=28	=28	=28	=28	=28	=28	=28	=28	=28	=28	=28	=28	=28
!	!	!	!	!	!	!	!	!	!LO:LB:g=original	!	!	!	!	!	!	!	!	!	!	!	!	!	!	!
.	.	.	.	.	.	.	16qqaa/	.	16qqA/	.	.	.	.	.	.	.	.	.	.	.	.	.	.	.
4C#X/	.	.	2a\	.	(8e/L	.	2gg\	.	4.G\	Do-	.	.	.	.	.	.	.	.	.	.	.	.	.	.
.	.	.	.	.	8A/)	.	.	.	.	.	.	.	.	.	.	.	.	.	.	.	.	.	.	.
4AA/	.	.	.	.	(8c/ 8e	.	.	.	.	.	.	.	.	.	.	.	.	.	.	.	.	.	.	.
.	.	.	.	.	8A/)	.	.	.	8G\	-mi-	.	.	.	.	.	.	.	.	.	.	.	.	.	.
4D\	.	.	4a\	.	(8d/	.	4ff#\	.	4F#\	-ne	.	.	.	.	.	.	.	.	.	.	.	.	.	.
.	.	.	.	.	8A/J)	.	.	.	.	.	.	.	.	.	.	.	.	.	.	.	.	.	.	.
=29	=29	=29	=29	=29	=29:|!	=29	=29	=29	=29	=29	=29	=29	=29	=29	=29	=29	=29	=29	=29	=29	=29	=29	=29	=29
!	!	!	!LO:SIC:v:s=2c#\	!	!LO:TX:t=P:problem:tt. 29-31 zapisane repetycją	!	!	!	!	!	!	!	!	!	!	!	!	!	!	!	!	!	!	!
4AA/	.	.	2c\	.	(8g/Lyy	.	4.ee\	.	4.E\	par-	0.r	.	0.r	.	0.r	.	.	.	.	.	.	.	.	.
.	.	.	.	.	8A/)yy	.	.	.	.	.	.	.	.	.	.	.	.	.	.	.	.	.	.	.
4r	.	.	.	.	(8g/yy	.	.	.	.	.	.	.	.	.	.	.	.	.	.	.	.	.	.	.
.	.	.	.	.	8A/)yy	.	(16ff#\LL	.	16F#\LL	.	.	.	.	.	.	.	.	.	.	.	.	.	.	.
.	.	.	.	.	.	.	16ee\JJ	.	(16E\JJ	.	.	.	.	.	.	.	.	.	.	.	.	.	.	.
4G\	.	.	4e\	.	(8g/yy	.	16dd\LL	.	16D\LL	.	.	.	.	.	.	.	.	.	.	.	.	.	.	.
!	!	!	!	!	!	!	!LO:SIC:v:s=16cc#\)	!	!	!	!	!	!	!	!	!	!	!	!	!	!	!	!	!
.	.	.	.	.	.	.	16cc\)	.	16C#X\JJ)	.	.	.	.	.	.	.	.	.	.	.	.	.	.	.
.	.	.	.	.	8A/J)yy	.	16b\	.	16BB/LL	-ce	.	.	.	.	.	.	.	.	.	.	.	.	.	.
.	.	.	.	.	.	.	16a\JJ	.	16AA/JJ	.	.	.	.	.	.	.	.	.	.	.	.	.	.	.
=30	=30	=30	=30	=30	=30	=30	=30	=30	=30	=30	=30	=30	=30	=30	=30	=30	=30	=30	=30	=30	=30	=30	=30	=30
!	!	!	!	!	!	!	!LO:LB:g=original	!	!	!	!	!	!	!	!	!	!	!	!	!	!	!	!	!
4F#\	.	.	4d\	.	(8f#/Lyy	.	4dd\	.	(4D\	par-	.	.	.	.	.	.	1.r	.	1.r	.	.	.	.	.
.	.	.	.	.	8A/)yy	.	.	.	.	.	.	.	.	.	.	.	.	.	.	.	.	.	.	.
4E\	.	.	4a\	.	(8c/yy	.	4ee\	.	4E\)	.	.	.	.	.	.	.	.	.	.	.	.	.	.	.
.	.	.	.	.	8A/)yy	.	.	.	.	.	.	.	.	.	.	.	.	.	.	.	.	.	.	.
4D\	.	.	4a\	.	(8d/yy	.	4ff#\	.	4F#\	-ce	.	.	.	.	.	.	.	.	.	.	.	.	.	.
.	.	.	.	.	8A/J)yy	.	.	.	.	.	.	.	.	.	.	.	.	.	.	.	.	.	.	.
=31	=31	=31	=31	=31	=31	=31	=31	=31	=31	=31	=31	=31	=31	=31	=31	=31	=31	=31	=31	=31	=31	=31	=31	=31
.	.	.	.	.	.	.	16qqaa/	.	8qqA/	.	.	.	.	.	.	.	.	.	.	.	.	.	.	.
4G\	.	.	2a\	.	(8e/Lyy	.	4gg\	.	(4G\	no-	.	.	.	.	.	.	.	.	.	.	1.r	.	1.r	.
.	.	.	.	.	8A/)yy	.	.	.	.	.	.	.	.	.	.	.	.	.	.	.	.	.	.	.
4E\	.	.	.	.	(8c/yy 8eyy	.	4ee\	.	4E\)	.	.	.	.	.	.	.	.	.	.	.	.	.	.	.
.	.	.	.	.	8A/)yy	.	.	.	.	.	.	.	.	.	.	.	.	.	.	.	.	.	.	.
4F#\	.	.	4a\	.	(8d/yy	.	4ff#\	.	4F#\	-bis	.	.	.	.	.	.	.	.	.	.	.	.	.	.
.	.	.	.	.	8A/J)yy	.	.	.	.	.	.	.	.	.	.	.	.	.	.	.	.	.	.	.
=32	=32	=32	=32	=32	=32	=32	=32	=32	=32	=32	=32	=32	=32	=32	=32	=32	=32	=32	=32	=32	=32	=32	=32	=32
4G\	.	.	8b\L	.	(8g/L	.	(16ff#\LL	.	16F#\LL	Do-	.	.	.	.	.	.	2.r	.	2.r	.	.	.	.	.
.	.	.	.	.	.	.	16ee\)	.	16E\	.	.	.	.	.	.	.	.	.	.	.	.	.	.	.
.	.	.	8b\J	.	8A/)	.	(16gg\	.	16A\	.	.	.	.	.	.	.	.	.	.	.	.	.	.	.
.	.	.	.	.	.	.	16ee\JJ)	.	16E\JJ	.	.	.	.	.	.	.	.	.	.	.	.	.	.	.
4A\	x 4	.	4a\	.	(8f#/	.	4dd\	.	4D\	.	.	.	.	.	.	.	.	.	.	.	.	.	.	.
.	.	.	.	.	8A/)	.	.	.	.	.	.	.	.	.	.	.	.	.	.	.	.	.	.	.
4AA/	x #	.	4a\	.	(8e/	.	4cc#X\	.	4C#X/	-mi-	.	.	.	.	.	.	.	.	.	.	.	.	.	.
.	.	.	.	.	8A/J)	.	.	.	.	.	.	.	.	.	.	.	.	.	.	.	.	.	.	.
=33	=33	=33	=33	=33	=33	=33	=33	=33	=33	=33	=33	=33	=33	=33	=33	=33	=33	=33	=33	=33	=33	=33	=33	=33
!LO:LB:g=original	!	!	!LO:LB:g=original	!LO:DY:t=for&colon;	!LO:TX:t=P:problem:mixed beam	!LO:DY:t=for&colon;	!	!LO:DY:t=forte	!	!	!	!	!	!	!	!	!LO:LB:g=original	!	!LO:LB:g=original	!	!	!	!	!
4D\	.	.	8a\L	f	8f#/L	f	8dd\L	f	4D\	-ne	0.r	.	0.r	.	0.r	.	4d\	.	4a\	.	8r	.	8r	.
!	!	!	!	!	!	!	!	!	!	!	!	!	!	!	!	!	!	!	!	!	!	!LO:DY:t=for&colon;	!	!
.	.	.	8a\	.	8ff#\	.	8ddd\J	.	.	.	.	.	.	.	.	.	.	.	.	.	8ff#\L	f	8ddd\	.
8r	.	.	8g\	.	8ee\	.	(16ddd\LL	.	4r	.	.	.	.	.	.	.	4r	.	4r	.	8ee\	.	(16ddd\LL	.
.	.	.	.	.	.	.	16ccc#X\)	.	.	.	.	.	.	.	.	.	.	.	.	.	.	.	16ccc#X\)	.
!LO:TX:t=P:problem:mixed beam	!	!	!	!	!	!	!	!	!	!	!	!	!	!	!	!	!	!	!	!	!	!	!	!
8D\L	x 6	.	8f#\	.	8dd\	.	(16ccc#\	.	.	.	.	.	.	.	.	.	.	.	.	.	8dd\	.	(16ccc#\	.
.	.	.	.	.	.	.	16bb\JJ)	.	.	.	.	.	.	.	.	.	.	.	.	.	.	.	16bb\JJ)	.
8E\	6 4	.	8e\	.	8cc#X\	.	(16bb\LL	.	4r	.	.	.	.	.	.	.	4r	.	4r	.	8cc#X\	.	(16bb\LL	.
.	.	.	.	.	.	.	16aa\)	.	.	.	.	.	.	.	.	.	.	.	.	.	.	.	16aa\)	.
!	!	!LO:DY:t=forte	!	!	!	!	!	!	!	!	!	!	!	!	!	!	!	!	!	!	!	!	!	!
8EE/J	5 #	f	8d\J	.	8b\J	.	(16aa\	.	.	.	.	.	.	.	.	.	.	.	.	.	8b\J	.	(16aa\	.
.	.	.	.	.	.	.	16gg#X\JJ)	.	.	.	.	.	.	.	.	.	.	.	.	.	.	.	16gg#X\JJ)	.
=34	=34	=34	=34	=34	=34	=34	=34	=34	=34	=34	=34	=34	=34	=34	=34	=34	=34	=34	=34	=34	=34	=34	=34	=34
!	!	!	!	!	!LO:SIC:v:s=8cc#\L	!	!	!	!LO:TX:a:t=3	!	!	!	!	!	!	!	!	!	!	!	!LO:SIC:v:s=8cc#\L	!	!	!
4AA/	.	.	8e\L	.	8cc\L	.	8aa\L	.	1.r	.	.	.	.	.	.	.	8a\	.	8a\	.	8cc\L	.	8aa\L	.
.	.	.	8d\	.	8b\	.	8ggn\J	.	.	.	.	.	.	.	.	.	8r	.	8r	.	8b\	.	8ggn\J	.
8r	.	.	8c#X\	.	8a\	.	(16gg\LL	.	.	.	.	.	.	.	.	.	8r	.	8r	.	8a\	.	(16gg\LL	.
.	.	.	.	.	.	.	16ff#\)	.	.	.	.	.	.	.	.	.	.	.	.	.	.	.	16ff#\)	.
!LO:TX:t=P:problem:mixed beam	!	!	!	!	!	!	!	!	!	!	!	!	!	!	!	!	!	!	!	!	!	!	!	!
8Gn\L	x 6	.	8b\	.	8g\	.	(16ff#\	.	.	.	.	.	.	.	.	.	8g\L	.	8b\L	.	8g\	.	(16ff#\	.
.	.	.	.	.	.	.	16ee\JJ)	.	.	.	.	.	.	.	.	.	.	.	.	.	.	.	16ee\JJ)	.
8A\	6 4	.	8a\	.	8f#\	.	(16ee\LL	.	.	.	.	.	.	.	.	.	8a\	.	8a\	.	8f#\	.	16ee\LL	.
.	.	.	.	.	.	.	16dd\)	.	.	.	.	.	.	.	.	.	.	.	.	.	.	.	16dd\	.
8AA/J	5 #	.	8g\J	.	8e\J	.	(16dd\	.	.	.	.	.	.	.	.	.	8a\J	.	8a\J	.	8e\J	.	16dd\	.
.	.	.	.	.	.	.	16cc#X\JJ)	.	.	.	.	.	.	.	.	.	.	.	.	.	.	.	16cc#X\JJ	.
=35	=35	=35	=35	=35	=35	=35	=35	=35	=35	=35	=35	=35	=35	=35	=35	=35	=35	=35	=35	=35	=35	=35	=35	=35
8D\L	.	.	8a\L	.	8f#/L	.	(16dd\LL	.	.	.	.	.	.	.	.	.	8d\L	.	8a\L	.	8f#/L	.	8dd\L	.
.	.	.	.	.	.	.	16a\)	.	.	.	.	.	.	.	.	.	.	.	.	.	.	.	.	.
8G\J	.	.	16g\L	.	8g/J	.	(16b\	.	.	.	.	.	.	.	.	.	8g\J	.	8b\J	.	8g/J	.	8ee\J	.
.	.	.	16b\JJ	.	.	.	16ee\JJ)	.	.	.	.	.	.	.	.	.	.	.	.	.	.	.	.	.
4A\	x 4	.	4a\	.	4f#/	.	4dd\	.	.	.	.	.	.	.	.	.	4a\	.	4a\	.	4f#/	.	4dd\	.
4AA/	x #	.	4a\	.	4e/	.	4cc#X\	.	.	.	.	.	.	.	.	.	4a\	.	4a\	.	4e/	.	4cc#X\	.
=36	=36	=36	=36	=36	=36	=36	=36	=36	=36	=36	=36	=36	=36	=36	=36	=36	=36	=36	=36	=36	=36	=36	=36	=36
!	!	!	!	!	!	!	!	!	!	!	!	!	!	!	!	!	!	!	!	!	!	!	!LO:LB:g=original	!
8D\L	.	.	8a\L	.	8f#/L	.	8dd\L	.	2.r	.	.	.	.	.	.	.	8d/L	.	8a\L	.	8f#/L	.	8dd\L	.
!	!	!	!	!	!	!	!LO:TUP:a:problem:klamra łukowa	!	!	!	!	!	!	!	!	!	!	!	!	!	!LO:TUP:b:problem:klamra łukowa	!	!LO:TUP:a:problem:klamra łukowa	!
8AA\J	.	.	8f#\J	.	8a/J	.	24ff#\L	.	.	.	.	.	.	.	.	.	8d/J	.	8a\J	.	24a/L	.	24ff#\L	.
.	.	.	.	.	.	.	24gg\	.	.	.	.	.	.	.	.	.	.	.	.	.	24b/	.	24gg\	.
.	.	.	.	.	.	.	24ff#\JJ	.	.	.	.	.	.	.	.	.	.	.	.	.	24a/JJ	.	24ff#\JJ	.
4DD/	.	.	4a\	.	4f#/	.	4dd\	.	.	.	.	.	.	.	.	.	4d/	.	4a\	.	4f#/	.	4dd\	.
4r	.	.	4r	.	4r	.	4r	.	.	.	.	.	.	.	.	.	4r	.	4r	.	4r	.	4r	.
=37	=37	=37	=37	=37	=37	=37	=37	=37	=37	=37	=37	=37	=37	=37	=37	=37	=37	=37	=37	=37	=37	=37	=37	=37
*tremolo	*	*	*tremolo	*	*	*	*	*	*	*	*	*	*	*	*	*	*	*	*	*	*	*	*	*
!	!	!	!	!	!	!	!LO:LB:g=original	!	!	!	!	!	!	!	!	!	!	!	!	!	!	!	!	!
!	!	!	!	!	!	!	!	!LO:DY:t=pi&colon;	!LO:LB:g=original	!	!	!	!	!	!	!	!LO:TX:a:t=9	!	!LO:TX:a:t=9	!	!LO:TX:a:t=5	!	!LO:TX:a:t=5	!
8D\L	.	.	8a\L	.	4d/	.	4dd\	p	4D\	A-	0.r	.	0.r	.	0.r	.	0.r	.	0.r	.	0.r	.	0.r	.
8D\	.	.	8a\	.	.	.	.	.	.	.	.	.	.	.	.	.	.	.	.	.	.	.	.	.
8D\	.	.	8a\	.	4f#/	.	4ff#\	.	4F#\	.	.	.	.	.	.	.	.	.	.	.	.	.	.	.
*	*	*	*	*	*	*	*	*	*	*	*	*	*	*	*	*	*	*	*	*	*	*	*	*
8D\J	.	.	8a\	.	.	.	.	.	.	.	.	.	.	.	.	.	.	.	.	.	.	.	.	.
*Xtremolo	*	*	*	*	*	*	*	*	*	*	*	*	*	*	*	*	*	*	*	*	*	*	*	*
!	!	!	!	!	!	!	!LO:TX:b:t=dolce	!	!	!	!	!	!	!	!	!	!	!	!	!	!	!	!	!
8F#\L	.	.	8a\	.	8a/L	.	8aa\L	.	8A\L	gnus	.	.	.	.	.	.	.	.	.	.	.	.	.	.
8F#\J	.	.	8a\J	.	8b/J	.	8bb\J	.	8B\J	.	.	.	.	.	.	.	.	.	.	.	.	.	.	.
=38	=38	=38	=38	=38	=38	=38	=38	=38	=38	=38	=38	=38	=38	=38	=38	=38	=38	=38	=38	=38	=38	=38	=38	=38
8E\L	.	.	8a\L	.	8a/L	.	8ccc\L	.	(8A\L	De-	.	.	.	.	.	.	.	.	.	.	.	.	.	.
8E\	.	.	8a\	.	8e/J	.	8ee\J	.	8E\J)	.	.	.	.	.	.	.	.	.	.	.	.	.	.	.
!LO:SIC:v:s=8C#\	!	!	!	!	!	!	!	!	!	!	!	!	!	!	!	!	!	!	!	!	!	!	!	!
8C\	.	.	8a\	.	4g/	.	4gg\	.	4G\	-i	.	.	.	.	.	.	.	.	.	.	.	.	.	.
!LO:SIC:v:s=8C#\	!	!	!	!	!	!	!	!	!	!	!	!	!	!	!	!	!	!	!	!	!	!	!	!
8C\	.	.	8a\	.	.	.	.	.	.	.	.	.	.	.	.	.	.	.	.	.	.	.	.	.
8D\	.	.	8a\	.	4f#/	.	4ff#\	.	4F#\	qui	.	.	.	.	.	.	.	.	.	.	.	.	.	.
*	*	*	*	*	*	*	*	*	*	*	*	*	*	*	*	*	*	*	*	*	*	*	*	*
8D\J	.	.	8a\J	.	.	.	.	.	.	.	.	.	.	.	.	.	.	.	.	.	.	.	.	.
*	*	*	*Xtremolo	*	*	*	*	*	*	*	*	*	*	*	*	*	*	*	*	*	*	*	*	*
=39	=39	=39	=39	=39	=39	=39	=39	=39	=39	=39	=39	=39	=39	=39	=39	=39	=39	=39	=39	=39	=39	=39	=39	=39
!LO:TX:t=P:problem:mixed beam	!	!	!	!	!LO:LB:g=original	!	!	!	!	!	!	!	!	!	!	!	!	!	!	!	!	!	!	!
8G\L	.	.	8b\L	.	8g/L	.	(16ff#\LL	.	16F#\LL	tol-	.	.	.	.	.	.	.	.	.	.	.	.	.	.
.	.	.	.	.	.	.	16ee\)	.	(16E\	.	.	.	.	.	.	.	.	.	.	.	.	.	.	.
8G\	.	.	8b\J	.	8f#/J	.	(16gg\	.	16G\)	.	.	.	.	.	.	.	.	.	.	.	.	.	.	.
.	.	.	.	.	.	.	16ee\JJ)	.	16E\JJ	.	.	.	.	.	.	.	.	.	.	.	.	.	.	.
*	*	*	*tremolo	*	*	*	*	*	*	*	*	*	*	*	*	*	*	*	*	*	*	*	*	*
8A\	x 4	.	8a\L	.	4f#/	.	4dd\	.	4D/	-lis	.	.	.	.	.	.	.	.	.	.	.	.	.	.
8A\	.	.	8a\	.	.	.	.	.	.	.	.	.	.	.	.	.	.	.	.	.	.	.	.	.
8AA/	.	.	8a\	.	4e/	.	4cc#X\	.	4C#X/	.	.	.	.	.	.	.	.	.	.	.	.	.	.	.
*	*	*	*	*	*	*	*	*	*	*	*	*	*	*	*	*	*	*	*	*	*	*	*	*
8AA/J	x #	.	8a\J	.	.	.	.	.	.	.	.	.	.	.	.	.	.	.	.	.	.	.	.	.
*	*	*	*Xtremolo	*	*	*	*	*	*	*	*	*	*	*	*	*	*	*	*	*	*	*	*	*
=40	=40	=40	=40	=40	=40	=40	=40	=40	=40	=40	=40	=40	=40	=40	=40	=40	=40	=40	=40	=40	=40	=40	=40	=40
4D\	.	.	4a\	.	8d/L	.	(8dd\L	.	8D\L	pec-	.	.	.	.	.	.	.	.	.	.	.	.	.	.
.	.	.	.	.	8f#/	.	8ff#\)	.	8F#\J	.	.	.	.	.	.	.	.	.	.	.	.	.	.	.
4r	.	.	4r	.	8a/	.	(8aa\	.	8A\L	-ca-	.	.	.	.	.	.	.	.	.	.	.	.	.	.
.	.	.	.	.	8f#/	.	8ff#\)	.	8F#\J	.	.	.	.	.	.	.	.	.	.	.	.	.	.	.
4D\	.	.	4a\	.	8dd/	.	(8ddd\	.	8d\L	-ta	.	.	.	.	.	.	.	.	.	.	.	.	.	.
.	.	.	.	.	8f#/J	.	8ff#\J)	.	8F#\J	.	.	.	.	.	.	.	.	.	.	.	.	.	.	.
=41	=41	=41	=41	=41	=41	=41	=41	=41	=41	=41	=41	=41	=41	=41	=41	=41	=41	=41	=41	=41	=41	=41	=41	=41
!	!	!	!LO:LB:g=original	!	!	!	!	!	!	!	!	!	!	!	!	!	!	!	!	!	!	!	!	!
4AA/	.	.	4a\	.	8.e/L	.	8.gg\L	.	8.G\L	mun-	0.r	.	0.r	.	0.r	.	0.r	.	0.r	.	2.r	.	2.r	.
.	.	.	.	.	32d/LL	.	32ff#\LL	.	32F#\LL	.	.	.	.	.	.	.	.	.	.	.	.	.	.	.
.	.	.	.	.	32e/JJJ	.	32gg\JJJ	.	32G\JJJ	.	.	.	.	.	.	.	.	.	.	.	.	.	.	.
4D\	.	.	4a\	.	4d/	.	8ff#\	.	4F#\	-di	.	.	.	.	.	.	.	.	.	.	.	.	.	.
.	.	.	.	.	.	.	8r	.	.	.	.	.	.	.	.	.	.	.	.	.	.	.	.	.
4r	.	.	4r	.	4r	.	4r	.	4r	.	.	.	.	.	.	.	.	.	.	.	.	.	.	.
=42	=42	=42	=42	=42	=42	=42	=42	=42	=42	=42	=42	=42	=42	=42	=42	=42	=42	=42	=42	=42	=42	=42	=42	=42
!LO:LB:g=original	!	!	!	!	!	!	!	!	!	!	!	!	!	!	!	!	!	!	!	!	!LO:LB:g=original	!	!	!
4D\	.	.	2a\	.	(8cn/L	.	4.f#/	.	4.F#\	ex-	.	.	.	.	.	.	.	.	.	.	2ccn\	.	4.ff#\	.
.	.	.	.	.	8d/)	.	.	.	.	.	.	.	.	.	.	.	.	.	.	.	.	.	.	.
4r	.	.	.	.	(8c/	.	.	.	.	.	.	.	.	.	.	.	.	.	.	.	.	.	.	.
.	.	.	.	.	8d/)	.	16g/LL	.	16G\LL	.	.	.	.	.	.	.	.	.	.	.	.	.	(16gg\LL	.
.	.	.	.	.	.	.	16a/JJ	.	(16A\JJ	.	.	.	.	.	.	.	.	.	.	.	.	.	16aa\JJ	.
4cn\	.	.	4f#\	.	(8c/	.	16g/LL	.	16G\LL	.	.	.	.	.	.	.	.	.	.	.	4cc\	.	16gg\LL	.
.	.	.	.	.	.	.	16f#/	.	16F#\)	.	.	.	.	.	.	.	.	.	.	.	.	.	16ff#\)	.
.	.	.	.	.	8d/J)	.	16e/	.	16E\	.	.	.	.	.	.	.	.	.	.	.	.	.	16ee\	.
.	.	.	.	.	.	.	16d/JJ	.	16D\JJ	.	.	.	.	.	.	.	.	.	.	.	.	.	16dd\JJ	.
=43	=43	=43	=43	=43	=43	=43	=43	=43	=43	=43	=43	=43	=43	=43	=43	=43	=43	=43	=43	=43	=43	=43	=43	=43
4B\	.	.	4g\	.	(8B/L	.	4g/	.	(4G\	-au-	.	.	.	.	.	.	.	.	.	.	4b\	.	4gg\	.
.	.	.	.	.	8d/)	.	.	.	.	.	.	.	.	.	.	.	.	.	.	.	.	.	.	.
4A\	.	.	4d\	.	(8f#/	.	4a/	.	4A\)	.	.	.	.	.	.	.	.	.	.	.	4a\	.	4aa\	.
.	.	.	.	.	8d/)	.	.	.	.	.	.	.	.	.	.	.	.	.	.	.	.	.	.	.
4G\	.	.	4d\	.	(8g/	.	4b/	.	4B\	-di	.	.	.	.	.	.	.	.	.	.	4g/	.	4bb\	.
.	.	.	.	.	8d/J)	.	.	.	.	.	.	.	.	.	.	.	.	.	.	.	.	.	.	.
=44	=44	=44	=44	=44	=44	=44	=44	=44	=44	=44	=44	=44	=44	=44	=44	=44	=44	=44	=44	=44	=44	=44	=44	=44
!	!	!	!	!	!	!	!	!	!	!	!	!	!	!	!	!	!	!	!	!	!	!	!	!
.	.	.	.	.	.	.	8qqdd/	.	.	.	.	.	.	.	.	.	.	.	.	.	.	.	.	.
4F#\	.	.	4d\	.	(8a/L	.	2ccn\	.	(2cn\	nos	.	.	.	.	.	.	.	.	.	.	2a/	.	2cccn\	.
.	.	.	.	.	8d/)	.	.	.	.	.	.	.	.	.	.	.	.	.	.	.	.	.	.	.
4D\	.	.	4f#\	.	(8a/	.	.	.	.	.	.	.	.	.	.	.	.	.	.	.	.	.	.	.
.	.	.	.	.	8d/)	.	.	.	.	.	.	.	.	.	.	.	.	.	.	.	.	.	.	.
4G\	.	.	4d\	.	(8g/	.	4b\	.	4B\)	.	.	.	.	.	.	.	.	.	.	.	4g/	.	4bb\	.
.	.	.	.	.	8d/J)	.	.	.	.	.	.	.	.	.	.	.	.	.	.	.	.	.	.	.
=45	=45	=45	=45	=45	=45	=45	=45	=45	=45	=45	=45	=45	=45	=45	=45	=45	=45	=45	=45	=45	=45	=45	=45	=45
4D\	.	.	4d\	.	(8a/L	.	4b/	.	8B\	Do-	0.r	.	0.r	.	0.r	.	2.r	.	2.r	.	4g/	.	4bb\	.
.	.	.	.	.	8d/)	.	.	.	8B\	-mi-	.	.	.	.	.	.	.	.	.	.	.	.	.	.
4DD/	.	.	4d\	.	(8f#/	.	4a/	.	4A\	-ne	.	.	.	.	.	.	.	.	.	.	4f#/	.	4aa\	.
.	.	.	.	.	8d/)	.	.	.	.	.	.	.	.	.	.	.	.	.	.	.	.	.	.	.
4r	.	.	4r	.	(8a/	.	4r	.	4r	.	.	.	.	.	.	.	.	.	.	.	4r	.	4r	.
.	.	.	.	.	8d/J) 8f#	.	.	.	.	.	.	.	.	.	.	.	.	.	.	.	.	.	.	.
=46	=46	=46	=46	=46	=46	=46	=46	=46	=46	=46	=46	=46	=46	=46	=46	=46	=46	=46	=46	=46	=46	=46	=46	=46
!	!	!	!	!LO:DY:t=piano	!	!	!LO:LB:g=original	!LO:DY:t=piano	!	!	!	!	!	!	!	!	!	!	!	!	!LO:TX:a:t=5	!	!LO:TX:a:t=5	!
4D\	.	.	2a\	p	(8c/L	.	4.f#/	p	4F#\	ex-	.	.	.	.	.	.	4d/	.	4a\	.	0.r	.	0.r	.
.	.	.	.	.	8d/)	.	.	.	.	.	.	.	.	.	.	.	.	.	.	.	.	.	.	.
!	!	!	!	!	!	!	!	!	!LO:N:vis=16	!	!	!	!	!	!	!	!	!	!	!	!	!	!	!
4r	.	.	.	.	(8c/	.	.	.	(8G\L	.	.	.	.	.	.	.	4r	.	4r	.	.	.	.	.
!	!	!	!	!	!	!	!	!	!LO:N:vis=16	!	!	!	!	!	!	!	!	!	!	!	!	!	!	!
.	.	.	.	.	8d/)	.	16g/LL	.	8A\J)	.	.	.	.	.	.	.	.	.	.	.	.	.	.	.
.	.	.	.	.	.	.	16a/JJ	.	.	.	.	.	.	.	.	.	.	.	.	.	.	.	.	.
!	!	!	!	!	!	!	!	!	!	!	!	!	!	!	!	!	!	!LO:DY:t=piano	!	!	!	!	!	!
4c\	.	.	4f#\	.	(8c/	.	16g/LL	.	16G\LL	.	.	.	.	.	.	.	4d/	p	4a\	.	.	.	.	.
.	.	.	.	.	.	.	16f#/	.	16F#\	.	.	.	.	.	.	.	.	.	.	.	.	.	.	.
.	.	.	.	.	8d/J)	.	16e/	.	16E\	.	.	.	.	.	.	.	.	.	.	.	.	.	.	.
.	.	.	.	.	.	.	16d/JJ	.	16D\JJ	.	.	.	.	.	.	.	.	.	.	.	.	.	.	.
=47	=47	=47	=47	=47	=47	=47	=47	=47	=47	=47	=47	=47	=47	=47	=47	=47	=47	=47	=47	=47	=47	=47	=47	=47
!	!	!	!	!	!	!	!	!	!	!	!	!	!	!	!	!	!	!	!	!	!	!	!	!
4B\	.	.	4d\	.	(8B/L	.	4g/	.	4G\	-au-	.	.	.	.	.	.	4B\	.	4g\	.	.	.	.	.
.	.	.	.	.	8d/)	.	.	.	.	.	.	.	.	.	.	.	.	.	.	.	.	.	.	.
4A\	.	.	4d\	.	(8f#/	.	4a/	.	4A\	-di	.	.	.	.	.	.	4d\	.	4a\	.	.	.	.	.
.	.	.	.	.	8d/)	.	.	.	.	.	.	.	.	.	.	.	.	.	.	.	.	.	.	.
4G\	.	.	4d\	.	(8g/	.	4b/	.	4B\	nos	.	.	.	.	.	.	4g\	.	4b\	.	.	.	.	.
.	.	.	.	.	8d/J)	.	.	.	.	.	.	.	.	.	.	.	.	.	.	.	.	.	.	.
=48	=48	=48	=48	=48	=48	=48	=48	=48	=48	=48	=48	=48	=48	=48	=48	=48	=48	=48	=48	=48	=48	=48	=48	=48
*	*	*	*tremolo	*	*	*	*	*	*	*	*	*	*	*	*	*	*	*	*	*	*	*	*	*
4F#\	.	.	8d\L	.	(8a/L	.	2cc\	.	2c\	ex-	.	.	.	.	.	.	2d/	.	2a\	.	.	.	.	.
.	.	.	8d\	.	8d/)	.	.	.	.	.	.	.	.	.	.	.	.	.	.	.	.	.	.	.
4D\	.	.	8d\	.	(8a/	.	.	.	.	.	.	.	.	.	.	.	.	.	.	.	.	.	.	.
*	*	*	*	*	*	*	*	*	*	*	*	*	*	*	*	*	*	*	*	*	*	*	*	*
.	.	.	8d\J	.	8d/)	.	.	.	.	.	.	.	.	.	.	.	.	.	.	.	.	.	.	.
*	*	*	*Xtremolo	*	*	*	*	*	*	*	*	*	*	*	*	*	*	*	*	*	*	*	*	*
4G\	.	.	4d\	.	(8g/	.	4b\	.	4B\	.	.	.	.	.	.	.	4g\	.	4b\	.	.	.	.	.
.	.	.	.	.	8d/J)	.	.	.	.	.	.	.	.	.	.	.	.	.	.	.	.	.	.	.
=49	=49	=49	=49	=49	=49	=49	=49	=49	=49	=49	=49	=49	=49	=49	=49	=49	=49	=49	=49	=49	=49	=49	=49	=49
!	!	!	!	!	!LO:LB:g=original	!	!	!	!	!	!	!	!	!	!	!	!	!	!	!	!	!	!	!
4D/	.	.	4d\	.	(8f#/L	.	4a/	.	4A\	-au-	0.r	.	0.r	.	0.r	.	4d/	.	4a\	.	.	.	.	.
.	.	.	.	.	8d/)	.	.	.	.	.	.	.	.	.	.	.	.	.	.	.	.	.	.	.
4DD/	.	.	4cc\	.	(8a/	.	4ff#\	.	4F#\	-di	.	.	.	.	.	.	4r	.	4r	.	.	.	.	.
.	.	.	.	.	8d/)	.	.	.	.	.	.	.	.	.	.	.	.	.	.	.	.	.	.	.
4GG/	.	.	4b\	.	(8b/	.	4gg\	.	4G\	nos	.	.	.	.	.	.	4r	.	4r	.	.	.	.	.
.	.	.	.	.	8dd/J)	.	.	.	.	.	.	.	.	.	.	.	.	.	.	.	.	.	.	.
=50	=50	=50	=50	=50	=50	=50	=50	=50	=50	=50	=50	=50	=50	=50	=50	=50	=50	=50	=50	=50	=50	=50	=50	=50
!	!	!	!	!	!LO:TUP:a:problem:klamra łukowa	!	!LO:TUP:a:problem:klamra łukowa	!	!LO:LB:g=original	!	!	!	!	!	!	!	!LO:TX:a:t=1	!	!LO:TX:a:t=1	!	!	!	!	!
4C/	.	.	4e\	.	12b\L	.	12ee\L	.	12A\L	Do-	.	.	.	.	.	.	2.r	.	2.r	.	2.r	.	2.r	.
.	.	.	.	.	12a\	.	12dd\	.	12B\	.	.	.	.	.	.	.	.	.	.	.	.	.	.	.
.	.	.	.	.	12g\J	.	12cc\J	.	12c\J	.	.	.	.	.	.	.	.	.	.	.	.	.	.	.
4D/	x 4	.	4d\	.	4g/	.	4b\	.	4B\	.	.	.	.	.	.	.	.	.	.	.	.	.	.	.
4DD/	x 3	.	4d\	.	4f#/	.	4a\	.	4A\	-mi-	.	.	.	.	.	.	.	.	.	.	.	.	.	.
=51	=51	=51	=51	=51	=51	=51	=51	=51	=51	=51	=51	=51	=51	=51	=51	=51	=51	=51	=51	=51	=51	=51	=51	=51
!	!	!	!	!	!	!	!LO:TX:t=P:problem:mixed beam	!	!	!	!	!	!	!	!	!	!LO:LB:g=original	!	!	!	!	!	!	!
4GG/	.	.	4d\	.	4g/	.	8g/L	.	4G\	-ne	.	.	.	.	.	.	4r	.	4r	.	4r	.	4r	.
!	!	!	!	!	!	!	!	!LO:DY:t=forte	!	!	!	!	!	!	!	!	!	!	!	!	!	!	!	!
.	.	.	.	.	.	.	16gg\L	f	.	.	.	.	.	.	.	.	.	.	.	.	.	.	.	.
.	.	.	.	.	.	.	16dd\JJ	.	.	.	.	.	.	.	.	.	.	.	.	.	.	.	.	.
8r	.	.	8r	.	8r	.	4.dd\	.	4r	.	.	.	.	.	.	.	8r	.	8r	.	8r	.	8r	.
!	!	!	!	!LO:DY:t=for&colon;:rj	!	!	!	!	!	!	!	!	!	!	!	!	!	!LO:DY:t=for	!	!	!	!LO:DY:t=for	!	!LO:DY:t=for
8B\L	x 3	.	8d\L	f	8dd'\L	.	.	.	.	.	.	.	.	.	.	.	8d/L	f	8d/L	.	8bb'\L	f	8ddd'\L	f
8A\	x 3	.	8d\	.	(8cc\	.	.	.	4r	.	.	.	.	.	.	.	8d/	.	8d/	.	(8aa\	.	(8ccc\	.
8F#\J	x 3	.	8d\J	.	8a\J)	.	8cc\	.	.	.	.	.	.	.	.	.	8d/J	.	8d/J	.	8ff#\J)	.	8aa\J)	.
=52	=52	=52	=52	=52	=52	=52	=52	=52	=52	=52	=52	=52	=52	=52	=52	=52	=52	=52	=52	=52	=52	=52	=52	=52
!	!	!	!LO:LB:g=original	!	!	!	!	!	!LO:TX:a:t=3	!	!	!	!	!	!	!	!	!	!LO:LB:g=original	!	!	!	!	!
4G\	.	.	4d\	.	4b\	.	8b\L	.	1.r	.	.	.	.	.	.	.	4G/	.	4d/	.	4gg\	.	4bb\	.
.	.	.	.	.	.	.	16gg\L	.	.	.	.	.	.	.	.	.	.	.	.	.	.	.	.	.
.	.	.	.	.	.	.	16dd\JJ	.	.	.	.	.	.	.	.	.	.	.	.	.	.	.	.	.
8r	.	.	8r	.	8r	.	4.dd\	.	.	.	.	.	.	.	.	.	8r	.	8r	.	8r	.	8r	.
8B\L	x 3	.	8d\L	.	8dd'\L	.	.	.	.	.	.	.	.	.	.	.	8d/L	.	8d/L	.	8bb\L	.	8ddd'\L	.
8A\	x 3	.	8d\	.	(8cc\	.	.	.	.	.	.	.	.	.	.	.	8d/	.	8d/	.	8aa\	.	(8ccc\	.
8F#\J	x 3	.	8d\J	.	8a\J)	.	8cc\	.	.	.	.	.	.	.	.	.	8d/J	.	8d/J	.	8ff#\J	.	8aa\J)	.
=53	=53	=53	=53	=53	=53	=53	=53	=53	=53	=53	=53	=53	=53	=53	=53	=53	=53	=53	=53	=53	=53	=53	=53	=53
!	!	!	!	!	!	!	!	!	!	!	!	!	!	!	!	!	!	!	!	!	!	!	!	!LO:DY:t=p&colon;
4G\	.	.	4d\	.	4g/	.	16b\LL	.	.	.	1.r	.	1.r	.	1.r	.	4G/	.	4d/	.	4gg\	.	4bb\	p
!	!	!	!	!	!	!	!	!LO:DY:t=piano	!	!	!	!	!	!	!	!	!	!	!	!	!	!	!	!
.	.	.	.	.	.	.	(16bb\	p	.	.	.	.	.	.	.	.	.	.	.	.	.	.	.	.
.	.	.	.	.	.	.	16aa\	.	.	.	.	.	.	.	.	.	.	.	.	.	.	.	.	.
.	.	.	.	.	.	.	16gg\JJ)	.	.	.	.	.	.	.	.	.	.	.	.	.	.	.	.	.
4r	.	.	4r	.	4r	.	16ff#\LL	.	.	.	.	.	.	.	.	.	4r	.	4r	.	4r	.	4r	.
.	.	.	.	.	.	.	16gg\	.	.	.	.	.	.	.	.	.	.	.	.	.	.	.	.	.
.	.	.	.	.	.	.	16aa\	.	.	.	.	.	.	.	.	.	.	.	.	.	.	.	.	.
.	.	.	.	.	.	.	16gg\JJ	.	.	.	.	.	.	.	.	.	.	.	.	.	.	.	.	.
4B\	.	.	4r	.	4g/	.	16dd\LL	.	.	.	.	.	.	.	.	.	4r	.	4r	.	4r	.	4r	.
.	.	.	.	.	.	.	16ffn\	.	.	.	.	.	.	.	.	.	.	.	.	.	.	.	.	.
.	.	.	.	.	.	.	16ee\	.	.	.	.	.	.	.	.	.	.	.	.	.	.	.	.	.
.	.	.	.	.	.	.	16dd#X\JJ	.	.	.	.	.	.	.	.	.	.	.	.	.	.	.	.	.
=54	=54	=54	=54	=54	=54	=54	=54	=54	=54	=54	=54	=54	=54	=54	=54	=54	=54	=54	=54	=54	=54	=54	=54	=54
!	!	!	!	!	!	!	!LO:PB:g=original	!LO:DY:t=forte	!	!	!	!	!	!	!	!	!	!	!	!	!	!	!	!
4c\	.	.	8e\L	.	(16g/LL	.	(16ee\LL	f	2.r	.	.	.	.	.	.	.	4r	.	4r	.	4r	.	4r	.
.	.	.	.	.	16e/	.	16cc\	.	.	.	.	.	.	.	.	.	.	.	.	.	.	.	.	.
.	.	.	8e\J	.	16d/	.	16b\	.	.	.	.	.	.	.	.	.	.	.	.	.	.	.	.	.
.	.	.	.	.	16c/JJ)	.	16a\JJ)	.	.	.	.	.	.	.	.	.	.	.	.	.	.	.	.	.
!	!	!	!	!	!	!	!	!	!	!	!	!	!	!	!	!	!	!	!	!	!	!	!	!LO:DY:t=for
4d\	.	.	4d\	.	4B/	.	4g/	.	.	.	.	.	.	.	.	.	4g\	.	4b\	.	4b\	.	4gg\	f
4D/	.	.	4d\	.	4A/	.	4f#X/	.	.	.	.	.	.	.	.	.	4d\	.	4a\	.	4a\	.	4ff#\	.
=55	=55	=55	=55	=55	=55	=55	=55	=55	=55	=55	=55	=55	=55	=55	=55	=55	=55	=55	=55	=55	=55	=55	=55	=55
*tremolo	*	*	*tremolo	*	*	*	*	*	*	*	*	*	*	*	*	*	*	*	*	*	*	*	*	*
!LO:LB:g=original	!	!	!	!	!	!	!	!LO:DY:t=forte	!	!	!	!	!	!	!	!	!	!LO:DY:t=for	!	!	!	!	!LO:LB:g=original	!LO:DY:t=for
8G\L	.	.	8d\L	.	4B/	.	4g/	f	2G\	A-	2d\	A-	(4b\	A-	(4g\	A-	2B/	f	2g\	.	2b\	.	2gg\	f
!LO:TX:b:t=Tutti	!	!	!	!	!	!	!	!	!	!	!	!	!	!	!	!	!	!	!	!	!	!	!	!
8G\	.	.	8d\	.	.	.	.	.	.	.	.	.	.	.	.	.	.	.	.	.	.	.	.	.
*	*	*	*	*	*tremolo	*	*	*	*	*	*	*	*	*	*	*	*	*	*	*	*	*	*	*
8G\	.	.	8d\	.	8b\L	.	4b\	.	.	.	.	.	4g\)	.	4b\)	.	.	.	.	.	.	.	.	.
8G\	.	.	8d\	.	8b\	.	.	.	.	.	.	.	.	.	.	.	.	.	.	.	.	.	.	.
8G\	.	.	8d\	.	8b\	.	8dd\L	.	4B\	-gnus	4d\	-gnus	4b\	-gnus	8dd\L	-gnus	4g\	.	4b\	.	4gg\	.	4bb\	.
*	*	*	*	*	*	*	*	*	*	*	*	*	*	*	*	*	*	*	*	*	*	*	*	*
!	!	!	!	!	!	!	!LO:TX:b:t=Tutti	!	!	!	!	!	!	!	!	!	!	!	!	!	!	!	!	!
8G\J	.	.	8d\J	.	8b\J	.	8ee\J	.	.	.	.	.	.	.	8ee\J	.	.	.	.	.	.	.	.	.
*Xtremolo	*	*	*	*	*Xtremolo	*	*	*	*	*	*	*	*	*	*	*	*	*	*	*	*	*	*	*
=56	=56	=56	=56	=56	=56	=56	=56	=56	=56	=56	=56	=56	=56	=56	=56	=56	=56	=56	=56	=56	=56	=56	=56	=56
!	!	!	!	!	!	!	!	!	!	!	!	!	!	!	!	!	!	!	!	!	!	!	!	!
8F#\L	5 3	.	8d\L	.	8a/L	.	8dd\L	.	(4F#\	De-	2d\	De-	2a\	De-	(8dd\L	De-	2d/	.	2a\	.	4ff#\	.	8ddd\L	.
8F#\	.	.	8d\	.	8f#/J	.	8a\J	.	.	.	.	.	.	.	8a\J	.	.	.	.	.	.	.	8aa\J	.
8D\	.	.	8d\	.	4a/	.	4cc\	.	4D\)	-i	.	.	.	.	4cc\)	.	.	.	.	.	4aa\	.	4ccc\	.
8D\	.	.	8d\	.	.	.	.	.	.	.	.	.	.	.	.	.	.	.	.	.	.	.	.	.
8G\	x 3	.	8d\	.	4g/	.	4b\	.	4G\	qui	4d\	-i	4g\	-i	4b\	-i	4g\	.	4b\	.	4gg\	.	4bb\	.
*	*	*	*	*	*	*	*	*	*	*	*	*	*	*	*	*	*	*	*	*	*	*	*	*
8G\J	.	.	8d\J	.	.	.	.	.	.	.	.	.	.	.	.	.	.	.	.	.	.	.	.	.
*	*	*	*Xtremolo	*	*	*	*	*	*	*	*	*	*	*	*	*	*	*	*	*	*	*	*	*
=57	=57	=57	=57	=57	=57	=57	=57	=57	=57	=57	=57	=57	=57	=57	=57	=57	=57	=57	=57	=57	=57	=57	=57	=57
8C/L	.	.	8e\L	.	8c/L	.	16b/LL	.	(4c\	tol-	4c\	qui	4e\	qui	(16b\LL	qui	4r	.	4r	.	4cc\	.	8aa\L	.
.	.	.	.	.	.	.	16a/	.	.	.	.	.	.	.	16a\	.	.	.	.	.	.	.	.	.
8C/	.	.	16c\L	.	16e/L	.	16cc/	.	.	.	.	.	.	.	16cc\	.	.	.	.	.	.	.	16ccc\L	.
.	.	.	16e\JJ	.	16c/JJ	.	16a/JJ	.	.	.	.	.	.	.	16a\JJ)	.	.	.	.	.	.	.	16aa\JJ	.
8D/	x 4	.	4d\	.	4B/	.	4g/	.	4d\)	.	(4B\	tol-	2d\	tol-	4g/	tol-	4g\	.	4b\	.	4b\	.	4gg\	.
8D/	.	.	.	.	.	.	.	.	.	.	.	.	.	.	.	.	.	.	.	.	.	.	.	.
8DD/	.	.	4d\	.	4A/	.	4f#/	.	4D\	.	4A\)	.	.	.	4f#/	.	4d\	.	4a\	.	4a\	.	4ff#\	.
8DD/J	.	.	.	.	.	.	.	.	.	.	.	.	.	.	.	.	.	.	.	.	.	.	.	.
=58	=58	=58	=58	=58	=58	=58	=58	=58	=58	=58	=58	=58	=58	=58	=58	=58	=58	=58	=58	=58	=58	=58	=58	=58
!	!	!LO:DY:t=p&colon;	!	!	!	!	!	!	!	!	!	!	!	!	!LO:TX:a:t=g	!	!	!	!	!	!LO:LB:g=original	!	!	!
4G\	.	p	4d\	.	4B/	.	8g/L	.	4G\	-lis	4B\	-lis	4d\	-lis	4g\	-lis	4G/	.	4g\	.	4b\	.	4gg\	.
.	.	.	.	.	.	.	8d/	.	.	.	.	.	.	.	.	.	.	.	.	.	.	.	.	.
4r	.	.	4r	.	4r	.	8b/	.	4r	.	4r	.	4r	.	4r	.	4r	.	4r	.	4r	.	4r	.
.	.	.	.	.	.	.	8g/	.	.	.	.	.	.	.	.	.	.	.	.	.	.	.	.	.
4G\	.	.	4d\	.	8B/L	.	8d/	.	4r	.	4r	.	4r	.	4r	.	4r	.	4r	.	4r	.	4r	.
.	.	.	.	.	8G/J	.	8B/J	.	.	.	.	.	.	.	.	.	.	.	.	.	.	.	.	.
=59	=59	=59	=59	=59	=59	=59	=59	=59	=59	=59	=59	=59	=59	=59	=59	=59	=59	=59	=59	=59	=59	=59	=59	=59
!	!	!	!	!	!	!	!	!	!LO:TX:a:t=1	!	!LO:TX:a:t=1	!	!LO:TX:a:t=1	!	!LO:TX:a:t=1	!	!	!	!	!	!LO:TX:a:t=1	!	!LO:TX:a:t=1	!
4D\	7 5	.	4d\	.	8.A/L	.	8.c/L	.	2.r	.	2.r	.	2.r	.	2.r	.	4d/	.	4d/	.	2.r	.	2.r	.
.	.	.	.	.	32G/LL	.	32B/LL	.	.	.	.	.	.	.	.	.	.	.	.	.	.	.	.	.
.	.	.	.	.	32A/JJJ	.	32c/JJJ	.	.	.	.	.	.	.	.	.	.	.	.	.	.	.	.	.
4GG/	x 3	.	4d\	.	4G/	.	4B/	.	.	.	.	.	.	.	.	.	4G/	.	4d/	.	.	.	.	.
4r	.	.	4r	.	4r	.	4r	.	.	.	.	.	.	.	.	.	4r	.	4r	.	.	.	.	.
!LO:TX:t=+	!	!	!	!	!	!	!	!	!	!	!	!	!	!	!	!	!	!	!	!	!	!	!	!
=60	=60	=60	=60	=60	=60!|:	=60	=60	=60	=60	=60	=60	=60	=60	=60	=60	=60	=60	=60	=60	=60	=60	=60	=60	=60
*tremolo	*	*	*tremolo	*	*tremolo	*	*	*	*	*	*	*	*	*	*	*	*	*	*	*	*	*	*	*
!	!	!LO:DY:t=for	!	!	!LO:LB:g=original	!	!	!	!LO:LB:g=original	!	!LO:LB:g=original	!	!	!	!	!	!	!	!LO:TX:a:t=2	!	!	!	!	!
8C/L	x 3	f	8c\L	.	8g/L	.	4ee\	.	2.C/	pec-	2.c\	pec-	2.g\	pec-	2.ee\	pec-	1.r	.	1.r	.	2.cc\	.	2.ee\	.
8C/	.	.	8c\	.	8g/	.	.	.	.	.	.	.	.	.	.	.	.	.	.	.	.	.	.	.
8C/	.	.	8c\	.	8g/	.	(16ee\LL	.	.	.	.	.	.	.	.	.	.	.	.	.	.	.	.	.
.	.	.	.	.	.	.	16gg\	.	.	.	.	.	.	.	.	.	.	.	.	.	.	.	.	.
8C/	.	.	8c\	.	8g/	.	16ff#\	.	.	.	.	.	.	.	.	.	.	.	.	.	.	.	.	.
.	.	.	.	.	.	.	16gg\JJ)	.	.	.	.	.	.	.	.	.	.	.	.	.	.	.	.	.
8C/	.	.	8c\	.	8g/	.	(16aa\LL	.	.	.	.	.	.	.	.	.	.	.	.	.	.	.	.	.
.	.	.	.	.	.	.	16gg\	.	.	.	.	.	.	.	.	.	.	.	.	.	.	.	.	.
8C/J	.	.	8c\J	.	8g/J	.	16ff#\)	.	.	.	.	.	.	.	.	.	.	.	.	.	.	.	.	.
.	.	.	.	.	.	.	16gg\JJ	.	.	.	.	.	.	.	.	.	.	.	.	.	.	.	.	.
=61	=61	=61	=61	=61	=61:|!	=61	=61	=61	=61	=61	=61	=61	=61	=61	=61	=61	=61	=61	=61	=61	=61	=61	=61	=61
!	!	!	!	!	!LO:TX:t=P:problem:takt zapisany repetycją	!	!	!	!	!	!	!	!	!	!LO:LB:g=original	!	!	!	!	!	!	!	!	!
8BB/L	x 3	.	8B\L	.	8g/Lyy	.	4dd\	.	2G\	-ca-	2.B\	-ca	2g\	-ca-	2dd\	-ca-	.	.	.	.	2.b\	.	2.dd\	.
8BB/	.	.	8B\	.	8g/yy	.	.	.	.	.	.	.	.	.	.	.	.	.	.	.	.	.	.	.
8BB/	.	.	8B\	.	8g/yy	.	(16dd\LL	.	.	.	.	.	.	.	.	.	.	.	.	.	.	.	.	.
.	.	.	.	.	.	.	16gg\	.	.	.	.	.	.	.	.	.	.	.	.	.	.	.	.	.
8BB/	.	.	8B\	.	8g/yy	.	16ff#\	.	.	.	.	.	.	.	.	.	.	.	.	.	.	.	.	.
.	.	.	.	.	.	.	16gg\JJ)	.	.	.	.	.	.	.	.	.	.	.	.	.	.	.	.	.
8BB/	.	.	8B\	.	8g/yy	.	16aa\LL	.	4G\	-ta	.	.	4g\	-ta	4dd\	-ta	.	.	.	.	.	.	.	.
.	.	.	.	.	.	.	16gg\	.	.	.	.	.	.	.	.	.	.	.	.	.	.	.	.	.
*	*	*	*	*	*	*	*	*	*	*ij	*	*	*	*	*	*	*	*	*	*	*	*	*	*
8BB/J	.	.	8B\J	.	8g/Jyy	.	16ff#\	.	.	.	.	.	.	.	.	.	.	.	.	.	.	.	.	.
.	.	.	.	.	.	.	16gg\JJ	.	.	.	.	.	.	.	.	.	.	.	.	.	.	.	.	.
*Xtremolo	*	*	*Xtremolo	*	*Xtremolo	*	*	*	*	*	*	*	*	*	*	*	*	*	*	*	*	*	*	*
=62	=62	=62	=62	=62	=62	=62	=62	=62	=62	=62	=62	=62	=62	=62	=62	=62	=62	=62	=62	=62	=62	=62	=62	=62
!	!	!	!	!	!	!	!LO:LB:g=original	!	!	!	!	!	!LO:LB:g=original	!	!	!	!	!	!	!	!	!	!	!
8D\L	.	.	4d\	.	8f#/L	.	8dd\L	.	4G\	pec-	4d\	pec-	4f#\	pe(c)-	8dd\L	pec-	4d\	.	4d\	.	4a/	.	4dd\	.
8D\	.	.	.	.	8f#/J	.	8cc\J	.	.	.	.	.	.	.	8cc\J	.	.	.	.	.	.	.	.	.
!	!	!	!	!	!	!	!	!	!	!	!	!	!LO:SIC:v:l:s=-ca-	!	!	!	!	!	!	!	!	!	!	!
8F#\	.	.	4d\	.	4a/	.	4cc\	.	4F#\	-ca-	4d\	-ca-	4a\	-cat-	4cc\	-ca-	4d\	.	4a\	.	4aa\	.	4ccc\	.
8F#\	.	.	.	.	.	.	.	.	.	.	.	.	.	.	.	.	.	.	.	.	.	.	.	.
8G\	.	.	4d\	.	4g/	.	4b\	.	4G\	-ta	4d\	-ta	4g\	-ta	4b\	-ta	4g\	.	4b\	.	4gg\	.	4bb\	.
8G\J	.	.	.	.	.	.	.	.	.	.	.	.	.	.	.	.	.	.	.	.	.	.	.	.
*	*	*	*	*	*	*	*	*	*	*Xij	*	*	*	*	*	*	*	*	*	*	*	*	*	*
=63	=63	=63	=63	=63	=63	=63	=63	=63	=63	=63	=63	=63	=63	=63	=63	=63	=63	=63	=63	=63	=63	=63	=63	=63
!	!	!	!LO:LB:g=original	!	!	!	!	!	!	!	!	!	!	!	!	!	!	!	!	!	!	!	!	!
!LO:TX:t=P:problem:zbędne powtórzenie taktu a-vla	!	!	!LO:TX:t=P:problem:zbędne powtórzenie taktu	!	!LO:TX:t=P:problem:zbędne powtórzenie taktu a-vla	!	!LO:TX:t=P:problem:zbędne powtórzenie taktu a-vla	!	!LO:TX:t=P:problem:zbędne powtórzenie taktu a-vla	!	!LO:TX:t=P:problem:zbędne powtórzenie taktu a-vla	!	!LO:TX:t=P:problem:zbędne powtórzenie taktu a-vla	!	!LO:TX:t=P:problem:zbędne powtórzenie taktu a-vla	!	!LO:TX:t=P:problem:zbędne powtórzenie taktu a-vla	!	!LO:TX:t=P:problem:zbędne powtórzenie taktu a-vla	!	!LO:TX:t=P:problem:zbędne powtórzenie taktu a-vla	!	!LO:TX:t=P:problem:zbędne powtórzenie taktu a-vla	!
2.ryy	.	.	4d\	.	2.ryy	.	2.ryy	.	2.ryy	.	2.ryy	.	2.ryy	.	2.ryy	.	2.ryy	.	2.ryy	.	2.ryy	.	2.ryy	.
.	.	.	4d\	.	.	.	.	.	.	.	.	.	.	.	.	.	.	.	.	.	.	.	.	.
.	.	.	4d\	.	.	.	.	.	.	.	.	.	.	.	.	.	.	.	.	.	.	.	.	.
=64	=64	=64	=64	=64	=64	=64	=64	=64	=64	=64	=64	=64	=64	=64	=64	=64	=64	=64	=64	=64	=64	=64	=64	=64
4D\	.	.	4d\	.	4g/	.	8.bt\L	.	4D\	mun-	4d\	mun-	4g\	mun-	4b\	mun-	4g\	.	4b\	.	4gg\	.	4bbt\	.
.	.	.	.	.	.	.	32a\LL	.	.	.	.	.	.	.	.	.	.	.	.	.	.	.	.	.
.	.	.	.	.	.	.	32b\JJJ	.	.	.	.	.	.	.	.	.	.	.	.	.	.	.	.	.
.	.	.	.	.	.	.	.	.	.	.	.	.	.	.	16qqa/LL	.	.	.	.	.	.	.	.	.
.	.	.	.	.	.	.	.	.	.	.	.	.	.	.	16qqb/JJ	.	.	.	.	.	.	.	.	.
4DD/	.	.	4d\	.	4f#/	.	4a/	.	4D\	-di	4d\	-di	4f#\	-di	4a\	-di	4d\	.	4a\	.	4ff#\	.	4aa\	.
4r	.	.	4r	.	4r	.	4r	.	4r	.	4r	.	4r	.	4r	.	4r	.	4r	.	4r	.	4r	.
=65	=65	=65	=65	=65	=65	=65	=65	=65	=65	=65	=65	=65	=65	=65	=65	=65	=65	=65	=65	=65	=65	=65	=65	=65
!	!	!	!	!	!	!	!	!	!	!	!	!	!	!	!	!	!LO:LB:g=original	!	!	!	!	!	!	!
4D\	.	.	8d\L	.	8dd'\L	.	8dd'\L	.	2.D\	mi-	2.d\	Mi-	2.cc\	Mi-	2.ff#\	Mi-	2.d/	.	2.a\	.	2.ff#\	.	2.ccc\	.
.	.	.	8f#\	.	8aa'\	.	8ccc'\	.	.	.	.	.	.	.	.	.	.	.	.	.	.	.	.	.
4r	.	.	8a\	.	8ff#'\	.	8aa'\	.	.	.	.	.	.	.	.	.	.	.	.	.	.	.	.	.
.	.	.	8cc\	.	8dd'\	.	8ff#'\	.	.	.	.	.	.	.	.	.	.	.	.	.	.	.	.	.
4D\	.	.	8a\	.	8a'\	.	8cc'\	.	.	.	.	.	.	.	.	.	.	.	.	.	.	.	.	.
.	.	.	8f#\J	.	8f#'\J	.	8a'\J	.	.	.	.	.	.	.	.	.	.	.	.	.	.	.	.	.
=66	=66	=66	=66	=66	=66	=66	=66	=66	=66	=66	=66	=66	=66	=66	=66	=66	=66	=66	=66	=66	=66	=66	=66	=66
4G\	.	.	8d\L	.	8g'\L	.	8b'\L	.	2.G\	-se-	2.d\	-se-	2.b\	-se-	2.gg\	-se-	2.g\	.	2.b\	.	2.gg\	.	2.bb\	.
.	.	.	8g\	.	8bb'\	.	8ddd'\	.	.	.	.	.	.	.	.	.	.	.	.	.	.	.	.	.
4r	.	.	8b\	.	8gg'\	.	8bb'\	.	.	.	.	.	.	.	.	.	.	.	.	.	.	.	.	.
.	.	.	8dd\	.	8dd'\	.	8gg'\	.	.	.	.	.	.	.	.	.	.	.	.	.	.	.	.	.
4G\	.	.	8b\	.	8b'\	.	8dd'\	.	.	.	.	.	.	.	.	.	.	.	.	.	.	.	.	.
.	.	.	8g\J	.	8g'\J	.	8b'\J	.	.	.	.	.	.	.	.	.	.	.	.	.	.	.	.	.
=67	=67	=67	=67	=67	=67	=67	=67	=67	=67	=67	=67	=67	=67	=67	=67	=67	=67	=67	=67	=67	=67	=67	=67	=67
!	!	!	!	!	!	!	!	!	!	!	!	!	!	!	!	!	!	!	!LO:LB:g=original	!	!	!	!	!
4D\	.	.	8d\L	.	8f#'\L	.	8a\L	.	2.D\	-re-	2.d\	-re-	2.a\	-re-	2.ff#\	-re-	2.d/	.	2.a\	.	2.ff#\	.	2.ccc\	.
.	.	.	8f#\	.	8aa'\	.	8ccc\	.	.	.	.	.	.	.	.	.	.	.	.	.	.	.	.	.
4r	.	.	8a\	.	8ff#'\	.	8aa\	.	.	.	.	.	.	.	.	.	.	.	.	.	.	.	.	.
.	.	.	8cc\	.	8dd'\	.	8ff#\	.	.	.	.	.	.	.	.	.	.	.	.	.	.	.	.	.
4D\	.	.	8a\	.	8a'\	.	8cc\	.	.	.	.	.	.	.	.	.	.	.	.	.	.	.	.	.
.	.	.	8f#\J	.	8f#'\J	.	8a\J	.	.	.	.	.	.	.	.	.	.	.	.	.	.	.	.	.
=68	=68	=68	=68	=68	=68	=68	=68	=68	=68	=68	=68	=68	=68	=68	=68	=68	=68	=68	=68	=68	=68	=68	=68	=68
!	!	!	!	!	!	!	!	!	!	!	!	!	!	!	!LO:N:vis=2.	!	!	!	!	!	!	!	!	!
4G\	.	.	8d\L	.	8g\L	.	8b\L	.	2G\	-re	2d\	-re	2b\	-re	2gg\	-re	2G/	.	2d/	.	2gg\	.	2bb\	.
.	.	.	8g\	.	8bb\	.	8ddd\	.	.	.	.	.	.	.	.	.	.	.	.	.	.	.	.	.
!	!	!	!LO:SIC:v:s=8b\	!	!	!	!	!	!	!	!	!	!	!	!	!	!	!	!	!	!	!	!	!
4r	.	.	8cc\	.	8gg\	.	8bb\	.	.	.	.	.	.	.	.	.	.	.	.	.	.	.	.	.
.	.	.	8dd\	.	8dd\	.	8gg\	.	.	.	.	.	.	.	.	.	.	.	.	.	.	.	.	.
4G\	.	.	8b\	.	8b\	.	8dd\	.	4r	.	4r	.	4r	.	4r	.	4r	.	4r	.	4r	.	4r	.
.	.	.	8g\J	.	8dd\J	.	8gg\J	.	.	.	.	.	.	.	.	.	.	.	.	.	.	.	.	.
=69	=69	=69	=69	=69	=69	=69	=69	=69	=69	=69	=69	=69	=69	=69	=69	=69	=69	=69	=69	=69	=69	=69	=69	=69
!	!	!	!	!	!	!	!	!	!	!	!LO:LB:g=original	!	!	!	!	!	!	!	!	!	!	!	!	!
4C/	.	.	8e\L	.	16cc\LL	.	16ee\LL	.	8r	.	8r	.	8r	.	8r	.	4r	.	4r	.	8r	.	8r	.
.	.	.	.	.	16ee\	.	16ccc\	.	.	.	.	.	.	.	.	.	.	.	.	.	.	.	.	.
.	.	.	8e\J	.	16dd\	.	16bb\	.	8C/	no-	(8e\	no-	8cc\	no-	(8aa\	no-	.	.	.	.	8cc\	.	8aa\	.
.	.	.	.	.	16cc\JJ	.	16aa\JJ	.	.	.	.	.	.	.	.	.	.	.	.	.	.	.	.	.
4D/	.	.	4d\	.	4b\	.	4gg\	.	4D\	.	4d\)	.	4b\	.	4gg\)	.	4g\	.	4b\	.	4b\	.	4gg\	.
4DD/	.	.	4d\	.	4a\	.	4ff#\	.	4D\	-bis.	4d\	-bis	4a\	-bis	4ff#\	-bis.	4d\	.	4a\	.	4a\	.	4ff#\	.
=70	=70	=70	=70	=70	=70	=70	=70	=70	=70	=70	=70	=70	=70	=70	=70	=70	=70	=70	=70	=70	=70	=70	=70	=70
!	!	!	!	!	!	!	!	!	!LO:LB:g=original	!	!	!	!	!	!	!	!	!	!	!	!	!	!	!
!	!	!	!	!	!	!	!	!	!LO:TX:a:t=1	!	!	!	!LO:TX:a:t=1	!	!LO:TX:a:t=1	!	!	!	!	!	!	!	!LO:LB:g=original	!
2.r	.	.	4e\	.	16b\LL	.	16gg\LL	.	2.r	.	2.r	.	2.r	.	2.r	.	4G/	.	4g\	.	4b\	.	4gg\	.
.	.	.	.	.	16cc\	.	16dd\	.	.	.	.	.	.	.	.	.	.	.	.	.	.	.	.	.
.	.	.	.	.	16b\	.	16cc\	.	.	.	.	.	.	.	.	.	.	.	.	.	.	.	.	.
.	.	.	.	.	16a\JJ	.	16b\JJ	.	.	.	.	.	.	.	.	.	.	.	.	.	.	.	.	.
.	.	.	4d\	.	4g/	.	4b\	.	.	.	.	.	.	.	.	.	4r	.	4r	.	4r	.	4r	.
!	!	!	!	!	!	!	!	!	!	!	!	!	!	!	!	!	!	!	!	!	!	!	!	!
.	.	.	4d\	.	4f#/	.	4a\	.	.	.	.	.	.	.	.	.	4r	.	4r	.	4r	.	4r	.
!	!	!	!	!	!LO:TX:b:t=Verte Cito\nAllo	!	!	!	!	!	!	!	!	!	!	!	!	!	!	!	!	!	!	!
=71||	=71||	=71||	=71||	=71||	=71||	=71||	=71||	=71||	=71||	=71||	=71||	=71||	=71||	=71||	=71||	=71||	=71||	=71||	=71||	=71||	=71||	=71||	=71||	=71||
*M2/4	*	*	*M2/4	*	*M2/4	*	*M2/4	*	*M2/4	*	*M2/4	*	*M2/4	*	*M2/4	*	*M2/4	*	*M2/4	*	*M2/4	*	*M2/4	*
!LO:LB:g=original	!	!	!LO:LB:g=original	!	!LO:PB:g=original	!	!	!	!LO:LB:g=original	!	!LO:LB:g=original	!	!LO:LB:g=original	!	!LO:LB:g=original	!	!	!	!	!	!	!	!	!
!LO:TX:a:t=allo	!	!LO:DY:t=piano	!LO:TX:a:t=Allo	!	!	!	!LO:TX:a:t=Allo	!	!LO:TX:a:t=allo	!	!LO:TX:a:t=allo	!	!LO:TX:a:t=allo	!	!LO:TX:a:t=Allo	!	!LO:TX:a:t=allo	!LO:DY:t=piano	!LO:TX:a:t=allegro	!LO:DY:t=piano	!LO:TX:a:t=allo	!LO:DY:t=piano	!	!LO:DY:t=piano
4G\	.	p	8r	.	8r	.	8r	.	8G\	Mi-	8d\	Mi-	8b\	Mi-	8dd\	Mi-	8G/	p	8g\	p	8b\	p	8dd'\	p
!	!	!	!	!LO:DY:t=piano	!	!LO:DY:t=piano	!	!LO:DY:t=piano	!	!	!	!	!	!	!	!	!	!	!	!	!	!	!	!
.	.	.	8d'\L	p	8b'\L	p	8dd'\L	p	8r	.	8r	.	8r	.	8r	.	8r	.	8r	.	8r	.	8r	.
4r	.	.	8d'\	.	8b'\	.	8dd'\	.	4r	.	4r	.	4r	.	4r	.	4r	.	4r	.	4r	.	4r	.
.	.	.	8d'\J	.	8b'\J	.	8dd'\J	.	.	.	.	.	.	.	.	.	.	.	.	.	.	.	.	.
=72	=72	=72	=72	=72	=72	=72	=72	=72	=72	=72	=72	=72	=72	=72	=72	=72	=72	=72	=72	=72	=72	=72	=72	=72
!	!	!	!	!	!	!	!	!	!	!	!	!	!	!	!	!	!	!	!	!	!LO:LB:g=original	!	!	!
4G\	.	.	8r	.	8r	.	8r	.	8G\	-se-	8d\	-se-	8b\	-se-	8dd\	-se-	8G/	.	8g\	.	8b\	.	8gg\	.
.	.	.	8d'\L	.	8b'\L	.	8gg'\L	.	8r	.	8r	.	8r	.	8r	.	8r	.	8r	.	8r	.	8r	.
4r	.	.	8d'\	.	8b'\	.	8gg'\	.	4r	.	4r	.	4r	.	4r	.	4r	.	4r	.	4r	.	4r	.
.	.	.	8d'\J	.	8b'\J	.	8gg'\J	.	.	.	.	.	.	.	.	.	.	.	.	.	.	.	.	.
=73	=73	=73	=73	=73	=73	=73	=73	=73	=73	=73	=73	=73	=73	=73	=73	=73	=73	=73	=73	=73	=73	=73	=73	=73
!	!	!	!	!	!	!	!	!	!	!	!	!	!	!	!	!	!LO:TX:a:t=1	!	!LO:TX:a:t=1	!	!	!	!	!
4C/	.	.	8r	.	8r	.	8r	.	8C/	-re-	8G/	-re-	8cc\	-re-	8ee\	-re-	2r	.	2r	.	8cc\	.	8ee'\	.
.	.	.	8g\L	.	8cc'\L	.	8ee'\L	.	8r	.	8r	.	8r	.	8r	.	.	.	.	.	8r	.	8r	.
4r	.	.	8g\	.	8cc'\	.	8ee'\	.	4r	.	4r	.	4r	.	4r	.	.	.	.	.	4r	.	4r	.
.	.	.	8g\J	.	8cc'\J	.	8ee'\J	.	.	.	.	.	.	.	.	.	.	.	.	.	.	.	.	.
=74	=74	=74	=74	=74	=74	=74	=74	=74	=74	=74	=74	=74	=74	=74	=74	=74	=74	=74	=74	=74	=74	=74	=74	=74
4AA/	.	.	8r	.	8r	.	8r	.	8A\	-re	8d\	-re	8cc\	-re	8ff#\	-re	8d/	.	8d/	.	8ff#'\	.	8ccc'\	.
.	.	.	8d\L	.	8ff#'\L	.	8ccc'\L	.	8r	.	8r	.	8r	.	8r	.	8r	.	8r	.	8r	.	8r	.
4r	.	.	8d\	.	8ff#'\	.	8ccc'\	.	4r	.	4r	.	4r	.	4r	.	4r	.	4r	.	4r	.	4r	.
.	.	.	8d\J	.	8ff#'\J	.	8ccc'\J	.	.	.	.	.	.	.	.	.	.	.	.	.	.	.	.	.
=75	=75	=75	=75	=75	=75	=75	=75	=75	=75	=75	=75	=75	=75	=75	=75	=75	=75	=75	=75	=75	=75	=75	=75	=75
8GG/	.	.	8r	.	8r	.	8r	.	8G\	no-	8d\	no-	8b\	no-	8gg\	no-	8G/	.	8g\	.	8gg'\	.	8bb'\	.
8r	.	.	8d\	.	8gg'\	.	8bb'\	.	8r	.	8r	.	8r	.	8r	.	8r	.	8r	.	8r	.	8r	.
8BB/	.	.	8r	.	8r	.	8r	.	8BB/	.	8d\	.	8b\	.	8gg\	.	8G/	.	8e\ 8g	.	8b'\	.	8gg'\	.
8r	.	.	8d\	.	8b'\	.	8gg'\	.	8rBB	.	8r	.	8r	.	8r	.	8r	.	8r	.	8r	.	8r	.
=76	=76	=76	=76	=76	=76	=76	=76	=76	=76	=76	=76	=76	=76	=76	=76	=76	=76	=76	=76	=76	=76	=76	=76	=76
8C/	.	.	8r	.	8r	.	8r	.	8C/	.	8d\	.	8cc\	.	8aa\	.	8d/	.	8d/	.	8cc\	.	8aa'\	.
8r	.	.	8e\	.	8cc\	.	8aa'\	.	8rGG	.	8r	.	8r	.	8r	.	8r	.	8r	.	8r	.	8r	.
8D/	.	.	8r	.	8r	.	8r	.	8D\	-bis	8d\	-bis	8a\	-bis	8ff#\	-bis	8d/	.	8d/	.	8a/	.	8ff#'\	.
!	!	!	!	!	!	!	!LO:TX:t=P:problem:przepełniona miara taktu	!	!	!	!	!	!	!	!	!	!	!	!	!	!	!	!	!
8r	.	.	8d\	.	8a/	.	8ff#'\	.	8r	.	8r	.	8r	.	8r	.	8r	.	8r	.	8r	.	8r	.
=77	=77	=77	=77	=77	=77	=77	=77	=77	=77	=77	=77	=77	=77	=77	=77	=77	=77	=77	=77	=77	=77	=77	=77	=77
!	!	!	!	!	!	!LO:DY:t=forte	!	!LO:DY:t=forte	!	!	!	!	!	!	!	!	!	!LO:DY:t=for	!	!LO:DY:t=for	!	!	!	!LO:DY:t=for
8G\L	.	.	8d\L	.	16b\LL	f	16dd\LL	f	2G\	Mi-	2d\	Mi-	2b\	Mi-	2dd\	Mi-	2G/	f	2d/	f	2bb\	.	2ddd\	f
.	.	.	.	.	16b\	.	16dd\	.	.	.	.	.	.	.	.	.	.	.	.	.	.	.	.	.
8G\	.	.	8d\	.	16b\	.	16dd\	.	.	.	.	.	.	.	.	.	.	.	.	.	.	.	.	.
.	.	.	.	.	16b\JJ	.	16dd\JJ	.	.	.	.	.	.	.	.	.	.	.	.	.	.	.	.	.
*	*	*	*	*	*tremolo	*	*tremolo	*	*	*	*	*	*	*	*	*	*	*	*	*	*	*	*	*
8G\	.	.	8d\	.	16b\LL	.	16dd\LL	.	.	.	.	.	.	.	.	.	.	.	.	.	.	.	.	.
.	.	.	.	.	16b\	.	16dd\	.	.	.	.	.	.	.	.	.	.	.	.	.	.	.	.	.
8G\J	.	.	8d\J	.	16b\	.	16dd\	.	.	.	.	.	.	.	.	.	.	.	.	.	.	.	.	.
.	.	.	.	.	16b\JJ	.	16dd\JJ	.	.	.	.	.	.	.	.	.	.	.	.	.	.	.	.	.
=78	=78	=78	=78	=78	=78	=78	=78	=78	=78	=78	=78	=78	=78	=78	=78	=78	=78	=78	=78	=78	=78	=78	=78	=78
*tremolo	*	*	*tremolo	*	*	*	*	*	*	*	*	*	*	*	*	*	*	*	*	*	*	*	*	*
!	!	!	!	!	!	!	!	!	!	!	!	!	!	!	!	!	!	!	!	!	!	!	!	!
8G\L	.	.	8d\L	.	16b\LL	.	16gg\LL	.	2G\	-se-	2d\	-se-	2b\	-se-	2dd\	-se-	2G/	.	2d/	.	2bb\	.	2ddd\	.
.	.	.	.	.	16b\	.	16gg\	.	.	.	.	.	.	.	.	.	.	.	.	.	.	.	.	.
8G\	.	.	8d\	.	16b\	.	16gg\	.	.	.	.	.	.	.	.	.	.	.	.	.	.	.	.	.
.	.	.	.	.	16b\	.	16gg\	.	.	.	.	.	.	.	.	.	.	.	.	.	.	.	.	.
8G\	.	.	8d\	.	16b\	.	16gg\	.	.	.	.	.	.	.	.	.	.	.	.	.	.	.	.	.
.	.	.	.	.	16b\	.	16gg\	.	.	.	.	.	.	.	.	.	.	.	.	.	.	.	.	.
8G\J	.	.	8d\J	.	16b\	.	16gg\	.	.	.	.	.	.	.	.	.	.	.	.	.	.	.	.	.
.	.	.	.	.	16b\JJ	.	16gg\JJ	.	.	.	.	.	.	.	.	.	.	.	.	.	.	.	.	.
=79	=79	=79	=79	=79	=79	=79	=79	=79	=79	=79	=79	=79	=79	=79	=79	=79	=79	=79	=79	=79	=79	=79	=79	=79
!	!	!	!	!	!	!	!	!	!LO:LB:g=original	!	!LO:LB:g=original	!	!	!	!	!	!	!	!LO:LB:g=original	!	!	!	!	!
8C/L	.	.	8g\L	.	16cc\LL	.	16ee\LL	.	2C/	-re-	2G/	-re-	2cc\	-re-	2ee\	-re-	2g\	.	2g\	.	2ccc\	.	2eee\	.
.	.	.	.	.	16cc\	.	16ee\	.	.	.	.	.	.	.	.	.	.	.	.	.	.	.	.	.
8C/	.	.	8g\	.	16cc\	.	16ee\	.	.	.	.	.	.	.	.	.	.	.	.	.	.	.	.	.
.	.	.	.	.	16cc\	.	16ee\	.	.	.	.	.	.	.	.	.	.	.	.	.	.	.	.	.
8C/	.	.	8g\	.	16cc\	.	16ee\	.	.	.	.	.	.	.	.	.	.	.	.	.	.	.	.	.
.	.	.	.	.	16cc\	.	16ee\	.	.	.	.	.	.	.	.	.	.	.	.	.	.	.	.	.
8C/J	.	.	8g\J	.	16cc\	.	16ee\	.	.	.	.	.	.	.	.	.	.	.	.	.	.	.	.	.
.	.	.	.	.	16cc\JJ	.	16ee\JJ	.	.	.	.	.	.	.	.	.	.	.	.	.	.	.	.	.
=80	=80	=80	=80	=80	=80	=80	=80	=80	=80	=80	=80	=80	=80	=80	=80	=80	=80	=80	=80	=80	=80	=80	=80	=80
!	!	!	!	!	!	!	!	!	!	!	!	!	!	!	!LO:LB:g=original	!	!	!	!	!	!	!	!	!
8A\L	.	.	8d\L	.	16ff#X\LL	.	16ccc\LL	.	2A\	-re	2d\	-re	2a\	-re	2ff#\	-re	2d/	.	2a\	.	2ff#\	.	2ccc\	.
.	.	.	.	.	16ff#\	.	16ccc\	.	.	.	.	.	.	.	.	.	.	.	.	.	.	.	.	.
8A\	.	.	8d\	.	16ff#\	.	16ccc\	.	.	.	.	.	.	.	.	.	.	.	.	.	.	.	.	.
.	.	.	.	.	16ff#\	.	16ccc\	.	.	.	.	.	.	.	.	.	.	.	.	.	.	.	.	.
8A\	.	.	8d\	.	16ff#\	.	16ccc\	.	.	.	.	.	.	.	.	.	.	.	.	.	.	.	.	.
.	.	.	.	.	16ff#\	.	16ccc\	.	.	.	.	.	.	.	.	.	.	.	.	.	.	.	.	.
8A\J	.	.	8d\J	.	16ff#\	.	16ccc\	.	.	.	.	.	.	.	.	.	.	.	.	.	.	.	.	.
.	.	.	.	.	16ff#\JJ	.	16ccc\JJ	.	.	.	.	.	.	.	.	.	.	.	.	.	.	.	.	.
*Xtremolo	*	*	*	*	*	*	*	*	*	*	*	*	*	*	*	*	*	*	*	*	*	*	*	*
=81	=81	=81	=81	=81	=81	=81	=81	=81	=81	=81	=81	=81	=81	=81	=81	=81	=81	=81	=81	=81	=81	=81	=81	=81
!	!	!	!	!	!LO:LB:g=original	!	!LO:LB:g=original	!	!	!	!	!	!LO:LB:g=original	!	!	!	!	!	!	!	!	!	!	!
8G\L	.	.	16d\LL	.	16gg\LL	.	16bb\LL	.	(4G\	no-	[2d\	no-	2b\	no-	2gg\	no-	4g\	.	4b\	.	4gg\	.	4bb\	.
.	.	.	16d\	.	16gg\	.	16bb\	.	.	.	.	.	.	.	.	.	.	.	.	.	.	.	.	.
!LO:TX:t=P:problem:mixed beam	!	!	!	!	!	!	!	!	!	!	!	!	!	!	!	!	!	!	!	!	!	!	!	!
8G\	.	.	16d\	.	16gg\	.	16bb\	.	.	.	.	.	.	.	.	.	.	.	.	.	.	.	.	.
.	.	.	16d\	.	16gg\JJ	.	16bb\JJ	.	.	.	.	.	.	.	.	.	.	.	.	.	.	.	.	.
8BB/	.	.	16d\	.	16b\LL	.	16gg\LL	.	4BB/)	.	.	.	.	.	.	.	8g\L	.	8b\L	.	4b/	.	4gg\	.
.	.	.	16d\	.	16b\	.	16gg\	.	.	.	.	.	.	.	.	.	.	.	.	.	.	.	.	.
8BB/J	.	.	16d\	.	16b\	.	16gg\	.	.	.	.	.	.	.	.	.	8g\J	.	8b\J	.	.	.	.	.
.	.	.	16d\JJ	.	16b\JJ	.	16gg\JJ	.	.	.	.	.	.	.	.	.	.	.	.	.	.	.	.	.
=82	=82	=82	=82	=82	=82	=82	=82	=82	=82	=82	=82	=82	=82	=82	=82	=82	=82	=82	=82	=82	=82	=82	=82	=82
!	!	!	!	!	!	!	!	!	!	!	!	!	!	!	!	!	!LO:LB:g=original	!	!	!	!	!	!LO:LB:g=original	!
8C/L	.	.	16d\LL	.	16cc\LL	.	16aa\LL	.	(4C/	-bis	4d\]	.	4cc\	.	4aa\	.	4d/	.	4a\	.	4cc\	.	4aa\	.
.	.	.	16d\	.	16cc\	.	16aa\	.	.	.	.	.	.	.	.	.	.	.	.	.	.	.	.	.
8C/	.	.	16d\	.	16cc\	.	16aa\	.	.	.	.	.	.	.	.	.	.	.	.	.	.	.	.	.
.	.	.	16d\	.	16cc\JJ	.	16aa\JJ	.	.	.	.	.	.	.	.	.	.	.	.	.	.	.	.	.
8D/	.	.	16d\	.	16a/LL	.	16ff#\LL	.	4D\)	.	4d\	-bis	4a\	-bis	4ff#\	-bis	8d/L	.	8a\L	.	4a/	.	4ff#\	.
.	.	.	16d\	.	16a/	.	16ff#\	.	.	.	.	.	.	.	.	.	.	.	.	.	.	.	.	.
8D/J	.	.	16d\	.	16a/	.	16ff#\	.	.	.	.	.	.	.	.	.	8d/J	.	8a\J	.	.	.	.	.
*	*	*	*	*	*	*	*	*	*	*	*	*	*	*	*	*	*	*	*	*	*	*	*	*
.	.	.	16d\JJ	.	16a/JJ	.	16ff#\JJ	.	.	.	.	.	.	.	.	.	.	.	.	.	.	.	.	.
*	*	*	*Xtremolo	*	*Xtremolo	*	*Xtremolo	*	*	*	*	*	*	*	*	*	*	*	*	*	*	*	*	*
=83	=83	=83	=83	=83	=83	=83	=83	=83	=83	=83	=83	=83	=83	=83	=83	=83	=83	=83	=83	=83	=83	=83	=83	=83
!	!	!	!LO:LB:g=original	!LO:DY:t=forte	!	!	!	!LO:DY:t=fofortisime	!	!	!	!	!	!	!	!	!	!	!	!	!	!	!	!
4G\	.	.	8g\L	f	(16b/LL	.	8.gg\L	ff	4G\	Mi-	4d\	mi-	4b\	Mi-	4gg\	Mi-	4g\	.	4b\	.	4gg\	.	4bb\	.
.	.	.	.	.	16d/)	.	.	.	.	.	.	.	.	.	.	.	.	.	.	.	.	.	.	.
.	.	.	8g\	.	(16b/	.	.	.	.	.	.	.	.	.	.	.	.	.	.	.	.	.	.	.
.	.	.	.	.	16d/JJ)	.	16bb\K	.	.	.	.	.	.	.	.	.	.	.	.	.	.	.	.	.
4D\	.	.	8a\	.	(16cc/LL	.	8.dd\	.	4D\	-se-	4d\	-se-	4a\	-se-	4ff#\	-se-	8d\L	.	8a\L	.	4ff#\	.	4ccc\	.
.	.	.	.	.	16d/)	.	.	.	.	.	.	.	.	.	.	.	.	.	.	.	.	.	.	.
.	.	.	8a\J	.	(16cc/	.	.	.	.	.	.	.	.	.	.	.	8d\J	.	8a\J	.	.	.	.	.
.	.	.	.	.	16d/JJ)	.	16ff#\Jk	.	.	.	.	.	.	.	.	.	.	.	.	.	.	.	.	.
=84	=84	=84	=84	=84	=84	=84	=84	=84	=84	=84	=84	=84	=84	=84	=84	=84	=84	=84	=84	=84	=84	=84	=84	=84
!	!	!	!	!	!	!	!	!	!	!	!	!	!	!	!	!	!	!	!LO:TX:b:t=c	!	!	!	!	!
4GG/	.	.	8g\L	.	(16b/LL	.	8.gg\L	.	4GG/	-re-	4d\	-re-	4b\	-re-	4gg\	-re-	4B/	.	4g/ 4b/	.	4gg\	.	4bb\	.
.	.	.	.	.	16d/)	.	.	.	.	.	.	.	.	.	.	.	.	.	.	.	.	.	.	.
.	.	.	8g\	.	(16b/	.	.	.	.	.	.	.	.	.	.	.	.	.	.	.	.	.	.	.
.	.	.	.	.	16d/JJ)	.	16bb\K	.	.	.	.	.	.	.	.	.	.	.	.	.	.	.	.	.
4D\	.	.	8a\	.	(16cc/LL	.	8.dd\	.	4D\	-re	4d\	-re	4a\	-re	4ff#\	-re	8d/L	.	8a\L	.	4ff#\	.	4ccc\	.
.	.	.	.	.	16d/)	.	.	.	.	.	.	.	.	.	.	.	.	.	.	.	.	.	.	.
.	.	.	8a\J	.	(16cc/	.	.	.	.	.	.	.	.	.	.	.	8d/J	.	8a\J	.	.	.	.	.
.	.	.	.	.	16d/JJ)	.	16ff#\Jk	.	.	.	.	.	.	.	.	.	.	.	.	.	.	.	.	.
=85	=85	=85	=85	=85	=85	=85	=85	=85	=85	=85	=85	=85	=85	=85	=85	=85	=85	=85	=85	=85	=85	=85	=85	=85
*	*	*	*	*	*	*	*	*	*	*ij	*	*	*	*	*	*	*	*	*	*	*	*	*	*
4G\	.	.	8g\L	.	(16b/LL	.	8.gg\L	.	4G\	Mi-	4d\	mi-	4b\	Mi-	4gg\	Mi-	4g\	.	4b\	.	4gg\	.	4bb\	.
.	.	.	.	.	16d/)	.	.	.	.	.	.	.	.	.	.	.	.	.	.	.	.	.	.	.
.	.	.	8g\	.	(16b/	.	.	.	.	.	.	.	.	.	.	.	.	.	.	.	.	.	.	.
.	.	.	.	.	16d/JJ)	.	16bb\K	.	.	.	.	.	.	.	.	.	.	.	.	.	.	.	.	.
4D\	.	.	8a\	.	(16cc/LL	.	8.dd\	.	4D\	-se-	4d\	-se-	4a\	-se-	4ff#\	-se-	8d\L	.	8a\L	.	4ff#\	.	4ccc\	.
.	.	.	.	.	16d/)	.	.	.	.	.	.	.	.	.	.	.	.	.	.	.	.	.	.	.
.	.	.	8a\J	.	(16cc/	.	.	.	.	.	.	.	.	.	.	.	8d\J	.	8a\J	.	.	.	.	.
.	.	.	.	.	16d/JJ)	.	16ff#\Jk	.	.	.	.	.	.	.	.	.	.	.	.	.	.	.	.	.
=86	=86	=86	=86	=86	=86	=86	=86	=86	=86	=86	=86	=86	=86	=86	=86	=86	=86	=86	=86	=86	=86	=86	=86	=86
4GG/	.	.	8g\L	.	(16b/LL	.	8.gg\L	.	4G\	-re-	4d\	-re-	4b\	-re-	4gg\	-re-	4B/	.	4g\	.	4gg\	.	4bb\	.
.	.	.	.	.	16d/)	.	.	.	.	.	.	.	.	.	.	.	.	.	.	.	.	.	.	.
.	.	.	8g\	.	(16b/	.	.	.	.	.	.	.	.	.	.	.	.	.	.	.	.	.	.	.
.	.	.	.	.	16d/JJ)	.	16bb\K	.	.	.	.	.	.	.	.	.	.	.	.	.	.	.	.	.
4D\	.	.	8a\	.	(16cc/LL	.	8.dd\	.	4D\	-re	4d\	-re	4a\	-re	4ff#\	-re	8d/L	.	8g\L	.	4ff#\	.	4ccc\	.
.	.	.	.	.	16d/)	.	.	.	.	.	.	.	.	.	.	.	.	.	.	.	.	.	.	.
.	.	.	8a\J	.	(16cc/	.	.	.	.	.	.	.	.	.	.	.	8d/J	.	8a\J	.	.	.	.	.
.	.	.	.	.	16d/JJ)	.	16ff#\Jk	.	.	.	.	.	.	.	.	.	.	.	.	.	.	.	.	.
*	*	*	*	*	*	*	*	*	*	*Xij	*	*	*	*	*	*	*	*	*	*	*	*	*	*
=87	=87	=87	=87	=87	=87	=87	=87	=87	=87	=87	=87	=87	=87	=87	=87	=87	=87	=87	=87	=87	=87	=87	=87	=87
!	!	!	!	!	!	!	!	!	!	!	!	!	!	!	!	!	!	!	!	!	!LO:LB:g=original	!	!	!
4G\	.	.	4g\	.	4G/ 4d 4b	.	4G/ 4d 4b 4gg	.	[2G\	no-	[2d\	no-	2b\	no-	2gg\	no-	4g\	.	4b\	.	4gg\	.	4bb\	.
4G\	.	.	4G\ 4d	.	4G/ 4d 4b	.	4G/ 4d 4b 4gg	.	.	.	.	.	.	.	.	.	4B/	.	4d/	.	4gg\	.	4bb\	.
=88	=88	=88	=88	=88	=88	=88	=88	=88	=88	=88	=88	=88	=88	=88	=88	=88	=88	=88	=88	=88	=88	=88	=88	=88
!LO:LB:g=original	!	!	!	!	!	!	!	!	!	!	!	!	!	!	!	!	!	!	!	!	!	!	!	!
4D\	.	.	4G\ 4d	.	4G/ 4d 4b	.	4G/ 4d 4b 4gg	.	2G\]	.	2d\]	.	2b\	.	2gg\	.	4G/	.	4B/	.	4gg\	.	4bb\	.
4BB/	.	.	4G\ 4d	.	4G/ 4d 4b	.	4G/ 4d 4b 4gg	.	.	.	.	.	.	.	.	.	4G/	.	4B/	.	4gg\	.	4bb\	.
=89	=89	=89	=89	=89	=89	=89	=89	=89	=89	=89	=89	=89	=89	=89	=89	=89	=89	=89	=89	=89	=89	=89	=89	=89
!	!	!	!	!	!	!	!	!	!LO:LB:g=original	!	!	!	!	!	!	!	!	!	!	!	!	!	!	!
2GG/	.	.	2G\ 2d	.	2G/ 2d 2b	.	2G/ 2d 2b 2gg	.	4G\	-bis	4d\	-bis	4b\	-bis	4gg\	-bis	2G/	.	2B/	.	2gg\	.	2bb\	.
!	!	!	!	!	!	!	!	!	!	!	!	!	!	!	!	!	!	!	!	!	!	!	!	!
.	.	.	.	.	.	.	.	.	4r	.	4r	.	4r	.	4r	.	.	.	.	.	.	.	.	.
!LO:TX:a:t=Finis	!	!	!	!	!	!	!	!	!LO:TX:b:t=Finis	!	!LO:TX:b:t=Finis.	!	!LO:TX:b:t=Finis	!	!LO:TX:b:t=Finis.	!	!	!	!	!	!	!	!	!
==	==	==	==	==	==	==	==	==	==	==	==	==	==	==	==	==	==	==	==	==	==	==	==	==
*-	*-	*-	*-	*-	*-	*-	*-	*-	*-	*-	*-	*-	*-	*-	*-	*-	*-	*-	*-	*-	*-	*-	*-	*-
!!!system-decoration: [(g1)][(g2)][(g3)][(g4)](s12)
!!!RDF**kern: > = above
!!!RDF**kern: < = below
!!!ENC: Krzysztof Stępień
!!!END: 2020-10-20
!!!ENC: Krzysztof Stępień
!!!END: 2022-04-19
